!!!!SEGMENT: pl-cz--iii-743--001-003_zebrowski-marcin-jozef--magnificat-quia-respexit.krn
!!!cenid: 17xx:2334
!!!COM: Żebrowski, Marcin Józef
!!!COM-rismid: pe30020322
!!!CDT: 1702-1770/06/29
!!!CNT: Polish
!!!OPR: Magnificat
!!!OTL: Quia respexit
!!!OMV: 003
!!!PDT:
!!!AGN:
!!!SMS-siglum: PL-CZ
!!!SMS-shelfmark: III-743
!!!SMS-shelfwork: 001-003 M
!!!SMS-variant: Baſso. pro Organo.: PL-CZ III-743:24-25
!!!SMS-altvar: Organo.: PL-CZ III-743:28
!!!NIFC-rismid: 300033495
!!!URL-scan: https://repozytorium.nifc.pl/islandora/object/pl-cz%3A25228/datastream/PDF/view
!!!ONB-nifc: UWAGA: części Magnificatu: 1. Magnificat, 2. Et exultavit, 3. Quia respexit, 4. Quia fecit, 5. Et misericordia, 6. Fecit potentiam, 7. Deposuit potentes, 8. Esurientes implevit bonis, 9. Suscepit Israel, 10. Sicut locutus, 11. Gloria patri (razem z Sicut erat i Amen)
!!!key: E
**kern	**fba	**dynam	**kern	**dynam	**kern	**dynam	**kern	**dynam	**kern	**kern	**kern	**text	**kern	**kern	**kern
*	*	*	*group3	*	*group3	*	*group3	*	*group2	*group2	*group2	*	*group2	*group1	*group1
*part10	*part10	*part10	*part9	*part9	*part8	*part8	*part7	*part7	*part6	*part5	*part4	*	*part3	*part2	*part1
*staff10	*	*	*staff9	*	*staff8	*	*staff7	*	*staff6	*staff5	*staff4	*	*staff3	*staff2	*staff1
*I"Baſso. pro Organo.	*	*	*I"Viola Oblig:	*	*I"Violino Secondo.	*	*I"Violino Primo	*	*I"Baſso.	*I"Tenore.	*I"Alto.	*	*I"Canto.	*I"Cornuo Secondo.	*I"Cornuo Primo.
*I'org	*	*	*I'vla obl.	*	*I'vl 2	*	*I'vl 1	*	*I'B	*I'T	*I'A	*	*I'S	*I'cor 2	*I'cor 1
*Iorgan	*	*	*Iviola	*	*Ivioln	*	*Ivioln	*	*Ibass	*Itenor	*Ialto	*	*Isoprn	*Icor	*Icor
*ICklav	*	*	*ICstr	*	*ICstr	*	*ICstr	*	*ICvox	*ICvox	*ICvox	*	*ICvox	*ICbras	*ICbras
*IGcont	*	*	*	*	*	*	*	*	*	*	*	*	*	*	*
*clefF4	*	*	*clefC3	*	*clefG2	*	*clefG2	*	*clefF4	*clefC4	*clefC3	*	*clefG2	*clefG2	*clefG2
*	*	*	*	*	*	*	*	*	*	*	*	*	*	*ITrd4c7	*ITrd4c7
*k[f#c#g#d#]	*	*	*k[f#c#g#d#]	*	*k[f#c#g#d#]	*	*k[f#c#g#d#]	*	*k[f#c#g#d#]	*k[f#c#g#d#]	*k[f#c#g#d#]	*	*k[f#c#g#d#]	*k[f#c#g#d#]	*k[f#c#g#d#]
*E:	*	*	*E:	*	*E:	*	*E:	*	*E:	*E:	*E:	*	*E:	*E:	*E:
*M3/4	*	*	*M3/4	*	*M3/4	*	*M3/4	*	*M3/4	*M3/4	*M3/4	*	*M3/4	*M3/4	*M3/4
=1	=1	=1	=1	=1	=1	=1	=1	=1	=1	=1	=1	=1	=1	=1	=1
!LO:TX:b:t=andante	!	!	!LO:TX:b:t=andante	!	!LO:TX:a:t=Andante	!	!LO:TX:a:t=Andante.	!	!LO:TX:a:t=Quia respexit 3/4 A&colon; S&colon; Tacet	!LO:TX:a:t=Quia respexit \nTacet.	!LO:TX:a:t=Andante.	!	!LO:TX:a:t=Quia respexit \nTacet	!LO:TX:a:t=Quia respexit tacet	!LO:TX:a:t=Quia respexit \nTacet.
4E\|	.	.	4g#\|	.	8.b\L	.	8.b/L	.	2.ryy	2.ryy	0.r	.	2.ryy	2.ryy	2.ryy
.	.	.	.	.	(32a\LL	.	(32a/LL	.	.	.	.	.	.	.	.
.	.	.	.	.	32b\JJJ)	.	32b/JJJ)	.	.	.	.	.	.	.	.
4A\|	.	.	4e\|	.	4cc#\|	.	4cc#\|	.	.	.	.	.	.	.	.
8r	.	.	8r	.	4d#/|>	.	4d#/|	.	.	.	.	.	.	.	.
16r	.	.	16r	.	.	.	.	.	.	.	.	.	.	.	.
!LO:TX:b:t=solo.	!	!	!	!	!	!	!	!	!	!	!	!	!	!	!
16A\	4 2	.	16b\	.	.	.	.	.	.	.	.	.	.	.	.
!	!	!	!LO:LB:g=original	!	!	!	!	!	!	!	!	!	!	!	!
=2	=2	=2	=2	=2	=2	=2	=2	=2	=2	=2	=2	=2	=2	=2	=2
.	.	.	.	.	8qqd#/	.	8qqd#/	.	.	.	.	.	.	.	.
8G#\L	6	.	8b\L	.	2e/	.	2e/	.	2.ryy	2.ryy	.	.	2.ryy	2.ryy	2.ryy
8B\	.	.	8g#\	.	.	.	.	.	.	.	.	.	.	.	.
8F#\	.	.	8a\	.	.	.	.	.	.	.	.	.	.	.	.
8E\	.	.	8g#\	.	.	.	.	.	.	.	.	.	.	.	.
8D#\	6	.	8f#\	.	4B/	.	4B/	.	.	.	.	.	.	.	.
8C#\J	.	.	8e\J	.	.	.	.	.	.	.	.	.	.	.	.
!	!	!	!	!	!	!	!LO:LB:g=original	!	!	!	!	!	!	!	!
=3	=3	=3	=3	=3	=3	=3	=3	=3	=3	=3	=3	=3	=3	=3	=3
8BB/L	7	.	8d#\L	.	(4f#/	.	(4a/	.	2.ryy	2.ryy	.	.	2.ryy	2.ryy	2.ryy
8BB/	.	.	8d#\	.	.	.	.	.	.	.	.	.	.	.	.
8BB/	6 4	.	8B\	.	4e/)	.	4g#/)	.	.	.	.	.	.	.	.
8BB/	.	.	8B\	.	.	.	.	.	.	.	.	.	.	.	.
8BB/	5 3	.	8B\	.	4d#/|	.	4f#/|	.	.	.	.	.	.	.	.
8BB/J	.	.	8B\J	.	.	.	.	.	.	.	.	.	.	.	.
=4	=4	=4	=4	=4	=4	=4	=4	=4	=4	=4	=4	=4	=4	=4	=4
8BB/L	6 4	.	8B/L	.	(32e/LLL	.	(32g#/LLL	.	2.ryy	2.ryy	.	.	2.ryy	2.ryy	2.ryy
.	.	.	.	.	32f#/JJ	.	32f#/JJ	.	.	.	.	.	.	.	.
.	.	.	.	.	8.g#/J)	.	8.e/J)	.	.	.	.	.	.	.	.
8BB/	.	.	8B/	.	.	.	.	.	.	.	.	.	.	.	.
.	.	.	.	.	.	.	8qqcc#/	.	.	.	.	.	.	.	.
8BB/	.	.	8B/	.	2g#/	.	4.b/	.	.	.	.	.	.	.	.
8BB/	.	.	8B/	.	.	.	.	.	.	.	.	.	.	.	.
8BB/	.	.	8B/	.	.	.	.	.	.	.	.	.	.	.	.
8BB/J	.	.	8B/J	.	.	.	8e/	.	.	.	.	.	.	.	.
=5	=5	=5	=5	=5	=5	=5	=5	=5	=5	=5	=5	=5	=5	=5	=5
8BB/L	7 3	.	8B/L	.	8.d#/L	.	(8.f#/L	.	2.ryy	2.ryy	0.r	.	2.ryy	2.ryy	2.ryy
8BB/	.	.	8B/	.	.	.	.	.	.	.	.	.	.	.	.
.	.	.	.	.	(32e/LL	.	32g#/LL	.	.	.	.	.	.	.	.
.	.	.	.	.	32f#/JJJ)	.	32a/JJJ)	.	.	.	.	.	.	.	.
8BB/	6 4	.	8B/	.	4e/	.	4g#/	.	.	.	.	.	.	.	.
8BB/	.	.	8B/	.	.	.	.	.	.	.	.	.	.	.	.
8BB/	5 3	.	8B/	.	4d#/	.	4f#/	.	.	.	.	.	.	.	.
8BB/J	.	.	8B/J	.	.	.	.	.	.	.	.	.	.	.	.
=6	=6	=6	=6	=6	=6	=6	=6	=6	=6	=6	=6	=6	=6	=6	=6
8E\L	.	.	8B\L	.	2e/	.	(32g#/LLL	.	2.ryy	2.ryy	.	.	2.ryy	2.ryy	2.ryy
.	.	.	.	.	.	.	32f#/JJ	.	.	.	.	.	.	.	.
.	.	.	.	.	.	.	8.e/J)	.	.	.	.	.	.	.	.
16E\L	.	.	16g#\L	.	.	.	.	.	.	.	.	.	.	.	.
16F#\JJ	.	.	16a\JJ	.	.	.	.	.	.	.	.	.	.	.	.
*	*	*	*	*	*	*	*2\right	*	*	*	*	*	*	*	*
8G#\L	6	.	8b\L	.	.	.	[2ee\	.	.	.	.	.	.	.	.
8E\	.	.	8g#\	.	.	.	.	.	.	.	.	.	.	.	.
8G#\	.	.	8b\	.	4r	.	.	.	.	.	.	.	.	.	.
8A\J	.	.	8cc#\J	.	.	.	.	.	.	.	.	.	.	.	.
!	!	!	!	!	!LO:LB:g=original	!	!	!	!	!	!	!	!	!	!
=7	=7	=7	=7	=7	=7	=7	=7	=7	=7	=7	=7	=7	=7	=7	=7
!LO:TX:a:t=P:problem=mixed beam	!	!	!	!	!LO:TX:a:t=1.	!	!	!	!	!	!	!	!	!	!
8B\L	6 4	.	8g#\L	.	2.r	.	16ee\LL]	.	2.ryy	2.ryy	.	.	2.ryy	2.ryy	2.ryy
.	.	.	.	.	.	.	(16gg#\	.	.	.	.	.	.	.	.
8B\	.	.	8g#\	.	.	.	16ff#\	.	.	.	.	.	.	.	.
.	.	.	.	.	.	.	16ee\JJ)	.	.	.	.	.	.	.	.
8BB/	5 3	.	8f#\	.	.	.	(32dd#\LLL	.	.	.	.	.	.	.	.
.	.	.	.	.	.	.	32cc#\JJ	.	.	.	.	.	.	.	.
.	.	.	.	.	.	.	8.b\J)	.	.	.	.	.	.	.	.
8BB/	.	.	8f#\	.	.	.	.	.	.	.	.	.	.	.	.
8BB/	7	.	8d#\	.	.	.	(32a/LLL	.	.	.	.	.	.	.	.
.	.	.	.	.	.	.	32g#/JJ	.	.	.	.	.	.	.	.
.	.	.	.	.	.	.	8.f#/J)	.	.	.	.	.	.	.	.
8BB/J	.	.	8d#\J	.	.	.	.	.	.	.	.	.	.	.	.
=8	=8	=8	=8	=8	=8	=8	=8	=8	=8	=8	=8	=8	=8	=8	=8
4E\	.	.	4B/	.	16e/LL|	.	16g#/LL|	.	2.ryy	2.ryy	.	.	2.ryy	2.ryy	2.ryy
.	.	.	.	.	(16e/	.	(16g#/	.	.	.	.	.	.	.	.
.	.	.	.	.	16f#/	.	16f#/	.	.	.	.	.	.	.	.
.	.	.	.	.	16g#/JJ)	.	16e/JJ)	.	.	.	.	.	.	.	.
*	*	*	*	*	*2\right	*	*	*	*	*	*	*	*	*	*
8r	.	.	8r	.	[2ee\	.	[2gg#\	.	.	.	.	.	.	.	.
8E\L	.	.	8g#\L	.	.	.	.	.	.	.	.	.	.	.	.
8G#\	6	.	8b\	.	.	.	.	.	.	.	.	.	.	.	.
8A\J	.	.	8cc#\J	.	.	.	.	.	.	.	.	.	.	.	.
!LO:LB:g=original	!	!	!	!	!	!	!	!	!	!	!	!	!	!	!
=9	=9	=9	=9	=9	=9	=9	=9	=9	=9	=9	=9	=9	=9	=9	=9
!LO:TX:a:t=P:problem=mixed beam	!	!	!	!	!	!	!	!	!	!	!	!	!	!	!
8B\L	6 4	.	8B/L	.	16ee\LL]	.	16gg#\LL]	.	2.ryy	2.ryy	0.r	.	2.ryy	2.ryy	2.ryy
.	.	.	.	.	(16gg#\	.	(16bb\	.	.	.	.	.	.	.	.
8B\	.	.	8B/	.	16ff#\)	.	16aa\	.	.	.	.	.	.	.	.
.	.	.	.	.	16ee\JJ	.	16gg#\JJ)	.	.	.	.	.	.	.	.
8BB/	5 3	.	8B/	.	(32dd#\LLL	.	(32ff#\LLL	.	.	.	.	.	.	.	.
.	.	.	.	.	32cc#\JJ)	.	32ee\JJ	.	.	.	.	.	.	.	.
.	.	.	.	.	8.b\J	.	8.dd#\J)	.	.	.	.	.	.	.	.
8BB/	.	.	8B/	.	.	.	.	.	.	.	.	.	.	.	.
8BB/	7	.	8B/	.	(32a/LLL	.	(32cc#\LLL	.	.	.	.	.	.	.	.
.	.	.	.	.	32g#/JJ)	.	32b\JJ	.	.	.	.	.	.	.	.
.	.	.	.	.	8.f#/J	.	8.a\J)	.	.	.	.	.	.	.	.
8BB/J	.	.	8B/J	.	.	.	.	.	.	.	.	.	.	.	.
!	!	!	!LO:LB:g=original	!	!	!	!	!	!	!	!	!	!	!	!
=10	=10	=10	=10	=10	=10	=10	=10	=10	=10	=10	=10	=10	=10	=10	=10
4E\	.	.	4B/	.	(16g#/LL	.	(16g#/LL	.	2.ryy	2.ryy	.	.	2.ryy	2.ryy	2.ryy
.	.	.	.	.	16e/)	.	16e/)	.	.	.	.	.	.	.	.
.	.	.	.	.	(16b/	.	(16b/	.	.	.	.	.	.	.	.
.	.	.	.	.	16g#/JJ)	.	16g#/JJ)	.	.	.	.	.	.	.	.
8r	.	.	8r	.	2ddnT\	.	2ddnT\	.	.	.	.	.	.	.	.
8B\L	6 n	.	8g#\L	.	.	.	.	.	.	.	.	.	.	.	.
8G#\	.	.	8b\	.	.	.	.	.	.	.	.	.	.	.	.
8E\J	.	.	8g#\J	.	.	.	.	.	.	.	.	.	.	.	.
!	!	!	!	!	!	!	!LO:LB:g=original	!	!	!	!	!	!	!	!
=11	=11	=11	=11	=11	=11	=11	=11	=11	=11	=11	=11	=11	=11	=11	=11
4A\	.	.	4e\	.	(16cc#\LL	.	(16cc#\LL	.	2.ryy	2.ryy	.	.	2.ryy	2.ryy	2.ryy
.	.	.	.	.	16a\)	.	16a\)	.	.	.	.	.	.	.	.
.	.	.	.	.	(16ee\	.	(16ee\	.	.	.	.	.	.	.	.
.	.	.	.	.	16cc#\JJ)	.	16cc#\JJ)	.	.	.	.	.	.	.	.
8r	.	.	8r	.	2aaT\	.	2aaT\	.	.	.	.	.	.	.	.
8F#\L	6\	.	8d#\L	.	.	.	.	.	.	.	.	.	.	.	.
8D#\	.	.	8f#\	.	.	.	.	.	.	.	.	.	.	.	.
8BB\J	.	.	8d#\J	.	.	.	.	.	.	.	.	.	.	.	.
=12	=12	=12	=12	=12	=12	=12	=12	=12	=12	=12	=12	=12	=12	=12	=12
!LO:TX:a:t=P:problem=mixed beam	!	!	!	!	!LO:TUP:a:problem=klamra łukowa	!	!LO:TUP:a:problem=klamra łukowa	!	!	!	!	!	!	!	!
8E\L	.	.	8B/L	.	24gg#\LL	.	24gg#\LL	.	2.ryy	2.ryy	.	.	2.ryy	2.ryy	2.ryy
.	.	.	.	.	24aa\	.	24aa\	.	.	.	.	.	.	.	.
.	.	.	.	.	24bb\JJ	.	24bb\JJ	.	.	.	.	.	.	.	.
8c#\	6	.	8e/	.	16ee\LL	.	16ee\LL	.	.	.	.	.	.	.	.
.	.	.	.	.	16aa\JJ	.	16aa\JJ	.	.	.	.	.	.	.	.
.	.	.	.	.	8qqgg#/	.	8qqgg#/	.	.	.	.	.	.	.	.
8B\	6 4	.	8e/	.	4.ff#T\	.	4.ff#T\	.	.	.	.	.	.	.	.
8B\	.	.	8e/	.	.	.	.	.	.	.	.	.	.	.	.
8BB/	7 3	.	8d#/	.	.	.	.	.	.	.	.	.	.	.	.
8BB/J	.	.	8d#/J	.	8ee\	.	8ee\	.	.	.	.	.	.	.	.
=13	=13	=13	=13	=13	=13	=13	=13	=13	=13	=13	=13	=13	=13	=13	=13
!LO:TX:a:t=P:problem=mixed beam	!	!	!LO:TX:a:t=P:problem=mixed beam	!	!LO:TX:a:t=P:problem=mixed beam	!	!	!	!	!	!	!	!	!	!
8E\L	.	.	8B/L	.	8e/L|	.	8g#\L|	.	2.ryy	2.ryy	0.r	.	2.ryy	2.ryy	2.ryy
8E\	.	.	8b\	.	8ee\J|	.	8gg#\J|	.	.	.	.	.	.	.	.
8G#\	6	.	8b\	.	8r	.	8r	.	.	.	.	.	.	.	.
!	!	!	!	!	!LO:LB:g=original	!	!	!	!	!	!	!	!	!	!
8A\	.	.	8cc#\	.	8ee\	.	8gg#\	.	.	.	.	.	.	.	.
!	!	!	!	!	!LO:TUP:a:problem=klamra łukowa	!	!	!	!	!	!	!	!	!	!
8B\	.	.	8f#\	.	24dd#\LL	.	24ff#\LL	.	.	.	.	.	.	.	.
.	.	.	.	.	24cc#\	.	24ee\	.	.	.	.	.	.	.	.
.	.	.	.	.	24b\JJ	.	24dd#\JJ	.	.	.	.	.	.	.	.
!	!	!	!	!	!LO:TUP:b:problem=klamra łukowa	!	!	!	!	!	!	!	!	!	!
8BB/J	.	.	8b\J	.	24a/LL	.	24cc#\LL	.	.	.	.	.	.	.	.
.	.	.	.	.	24g#/	.	24b\	.	.	.	.	.	.	.	.
.	.	.	.	.	24f#/JJ	.	24a\JJ	.	.	.	.	.	.	.	.
=14	=14	=14	=14	=14	=14	=14	=14	=14	=14	=14	=14	=14	=14	=14	=14
!	!	!	!	!	!LO:TX:a:t=P:problem=mixed beam	!	!LO:TX:a:t=P:problem=mixed beam	!	!	!	!	!	!	!	!
8r	.	.	8r	.	8e/L|	.	8g#/L|	.	2.ryy	2.ryy	.	.	2.ryy	2.ryy	2.ryy
!LO:TX:a:t=P:problem=mixed beam	!	!	!	!	!	!	!	!	!	!	!	!	!	!	!
8E\L	.	.	8b\L	.	8ee\J|	.	8gg#\J|	.	.	.	.	.	.	.	.
8G#\	6	.	8b\	.	8r	.	8r	.	.	.	.	.	.	.	.
8A\	.	.	8cc#\	.	8ee\	.	8gg#\	.	.	.	.	.	.	.	.
!	!	!	!	!	!LO:TUP:a:problem=klamra łukowa	!	!	!	!	!	!	!	!	!	!
8B\	.	.	8f#\	.	24dd#\LL	.	24ff#\LL	.	.	.	.	.	.	.	.
.	.	.	.	.	24cc#\	.	24ee\	.	.	.	.	.	.	.	.
.	.	.	.	.	24b\JJ	.	24dd#\JJ	.	.	.	.	.	.	.	.
!	!	!	!	!	!LO:TUP:b:problem=klamra łukowa	!	!	!	!	!	!	!	!	!	!
8BB/J	.	.	8b\J	.	24a/LL	.	24cc#\LL	.	.	.	.	.	.	.	.
.	.	.	.	.	24g#/	.	24b\	.	.	.	.	.	.	.	.
.	.	.	.	.	24f#/JJ	.	24a\JJ	.	.	.	.	.	.	.	.
=15	=15	=15	=15	=15	=15	=15	=15	=15	=15	=15	=15	=15	=15	=15	=15
!LO:TX:a:t=P:problem=mixed beam	!	!	!	!	!LO:TUP:b:problem=klamra łukowa	!	!LO:TUP:b	!	!	!	!	!	!	!	!
8E\L	.	.	8b\L	.	24e/LL	.	24g#/LL	.	2.ryy	2.ryy	.	.	2.ryy	2.ryy	2.ryy
.	.	.	.	.	24f#/	.	24a/	.	.	.	.	.	.	.	.
.	.	.	.	.	24g#/JJ	.	24b/JJ	.	.	.	.	.	.	.	.
!	!	!	!	!	!LO:TUP:b:problem=klamra łukowa	!	!LO:TUP:b	!	!	!	!	!	!	!	!
8A\	.	.	8cc#\J	.	24a/LL	.	24cc#/LL	.	.	.	.	.	.	.	.
.	.	.	.	.	24g#/	.	24b/	.	.	.	.	.	.	.	.
.	.	.	.	.	24f#/JJ	.	24a/JJ	.	.	.	.	.	.	.	.
8B\	6 4	.	8B/L	.	4e/|	.	4g#/	.	.	.	.	.	.	.	.
8BB/J	.	.	8B/	.	.	.	.	.	.	.	.	.	.	.	.
8B\L	5 3	.	8B/	.	4d#t/	.	4f#T/	.	.	.	.	.	.	.	.
8A\J	.	.	8B/J	.	.	.	.	.	.	.	.	.	.	.	.
=16	=16	=16	=16	=16	=16	=16	=16	=16	=16	=16	=16	=16	=16	=16	=16
!LO:TX:a:t=P:problem=mixed beam	!	!	!LO:TX:a:t=P:problem=mixed beam	!	!LO:TX:a:t=P:problem=mixed beam	!	!LO:TX:a:t=P:problem=mixed beam	!LO:DY:b:t=piano	!	!	!	!	!	!	!
8G#\L	6	.	8B/L	.	8e/L|	.	8g#/L|	p	2.ryy	2.ryy	.	.	2.ryy	2.ryy	2.ryy
!	!	!LO:DY:b:t=piano.	!	!	!	!	!	!	!	!	!	!	!	!	!
8E\	.	p	8b\	.	8ee\J|	.	8gg#\J|	.	.	.	.	.	.	.	.
!	!	!	!	!	!	!LO:DY:b:t=pia	!	!	!	!	!	!	!	!	!
8G#\	.	.	8b\	.	8r	p	8r	.	.	.	.	.	.	.	.
8A\	.	.	8cc#\	.	8ee\	.	8gg#\	.	.	.	.	.	.	.	.
!	!	!	!	!	!LO:TUP:a:problem=klamra łukowa	!	!	!	!	!	!	!	!	!	!
8B\	.	.	8f#\	.	24dd#\LL	.	24ff#\LL	.	.	.	.	.	.	.	.
.	.	.	.	.	24cc#\	.	24ee\	.	.	.	.	.	.	.	.
.	.	.	.	.	24b\JJ	.	24dd#\JJ	.	.	.	.	.	.	.	.
!	!	!	!	!	!LO:TUP:b:problem=klamra łukowa	!	!	!	!	!	!	!	!	!	!
8BB/J	.	.	8b\J	.	24a/LL	.	24cc#\LL	.	.	.	.	.	.	.	.
.	.	.	.	.	24g#/	.	24b\	.	.	.	.	.	.	.	.
.	.	.	.	.	24f#/JJ	.	24a\JJ	.	.	.	.	.	.	.	.
!	!	!	!	!	!	!	!LO:LB:g=original	!	!	!	!	!	!	!	!
=17	=17	=17	=17	=17	=17	=17	=17	=17	=17	=17	=17	=17	=17	=17	=17
!	!	!	!	!	!LO:TX:a:t=P:problem=mixed beam	!	!LO:TX:a:t=P:problem=mixed beam	!	!	!	!	!	!	!	!
8r	.	.	8r	.	8e/L|	.	8g#/L|	.	2.ryy	2.ryy	1.r	.	2.ryy	2.ryy	2.ryy
!LO:TX:a:t=P:problem=mixed beam	!	!	!	!	!	!	!	!	!	!	!	!	!	!	!
8E\L	.	.	8b\L	.	8ee\J|	.	8gg#\J|	.	.	.	.	.	.	.	.
8G#\	6	.	8b\	.	8r	.	8r	.	.	.	.	.	.	.	.
8A\	.	.	8cc#\	.	8ee\	.	8gg#\	.	.	.	.	.	.	.	.
!	!	!	!	!	!LO:TUP:a:problem=klamra łukowa	!	!LO:TUP:a:problem=klamra łukowa	!	!	!	!	!	!	!	!
8B\	.	.	8f#\	.	24dd#\LL	.	24ff#\LL	.	.	.	.	.	.	.	.
.	.	.	.	.	24cc#\	.	24ee\	.	.	.	.	.	.	.	.
.	.	.	.	.	24b\JJ	.	24dd#\JJ	.	.	.	.	.	.	.	.
!	!	!	!	!	!LO:TUP:b:problem=klamra łukowa	!	!LO:TUP:a:problem=klamra łukowa	!	!	!	!	!	!	!	!
8BB/J	.	.	8b\J	.	24a/LL	.	24cc#\LL	.	.	.	.	.	.	.	.
.	.	.	.	.	24g#/	.	24b\	.	.	.	.	.	.	.	.
.	.	.	.	.	24f#/JJ	.	24a\JJ	.	.	.	.	.	.	.	.
!LO:LB:g=original	!	!	!	!	!LO:LB:g=original	!	!	!	!	!	!	!	!	!	!
=18	=18	=18	=18	=18	=18	=18	=18	=18	=18	=18	=18	=18	=18	=18	=18
!LO:TX:a:t=P:problem=mixed beam	!	!LO:DY:b:t=for	!	!LO:DY:b:t=for	!LO:TUP:b:problem=klamra łukowa	!LO:DY:b:t=for	!LO:TUP:b	!LO:DY:b:t=for.	!	!	!	!	!	!	!
8E\L	.	f	8b\L	f	24e/LL	f	24g#/LL	f	2.ryy	2.ryy	.	.	2.ryy	2.ryy	2.ryy
.	.	.	.	.	24f#/	.	24a/	.	.	.	.	.	.	.	.
.	.	.	.	.	24g#/JJ	.	24b/JJ	.	.	.	.	.	.	.	.
*	*	*	*	*	*	*	*Xtuplet	*	*	*	*	*	*	*	*
!	!	!	!	!	!LO:TUP:b:problem=klamra łukowa	!	!	!	!	!	!	!	!	!	!
8AA/J	6	.	8cc#\J	.	24a/LL	.	24cc#\LL	.	.	.	.	.	.	.	.
.	.	.	.	.	24g#/	.	24b\	.	.	.	.	.	.	.	.
.	.	.	.	.	24f#/JJ	.	24a\JJ	.	.	.	.	.	.	.	.
4BB/	6 4	.	4B/	.	4e/|	.	4g#/|	.	.	.	.	.	.	.	.
4BB/	7 3	.	4B/	.	4d#t/	.	4f#T/	.	.	.	.	.	.	.	.
!	!	!	!LO:LB:g=original	!	!	!	!	!	!	!	!	!	!	!	!
=19	=19	=19	=19	=19	=19	=19	=19	=19	=19	=19	=19	=19	=19	=19	=19
2EE/	.	.	2B/	.	2e/	.	2e/	.	2.ryy	2.ryy	2.r	.	2.ryy	2.ryy	2.ryy
4r	.	.	4r	.	4r	.	4r	.	.	.	.	.	.	.	.
=20	=20	=20	=20	=20	=20	=20	=20	=20	=20	=20	=20	=20	=20	=20	=20
!LO:TX:a:t=P:problem=mixed beam	!	!LO:DY:b:t=piano	!	!LO:DY:b:t=pia	!	!	!	!LO:DY:b:t=pia.	!	!	!LO:TX:a:i:t=Solo.	!	!	!	!
8E\L	.	p	8g#\L	p	2.r	.	8.bT/L	p	2.ryy	2.ryy	4b\	Qui-	2.ryy	2.ryy	2.ryy
8G#\	.	.	8b\	.	.	.	.	.	.	.	.	.	.	.	.
.	.	.	.	.	.	.	(32a/LL	.	.	.	.	.	.	.	.
.	.	.	.	.	.	.	32b/JJJ)	.	.	.	.	.	.	.	.
8A\	6	.	8e\	.	.	.	4cc#\	.	.	.	4cc#\	-a	.	.	.
8F#\	.	.	8a\	.	.	.	.	.	.	.	.	.	.	.	.
8B\	.	.	8f#\	.	.	.	4d#/	.	.	.	4d#\	res-	.	.	.
8BB/J	.	.	8b\J	.	.	.	.	.	.	.	.	.	.	.	.
=21	=21	=21	=21	=21	=21	=21	=21	=21	=21	=21	=21	=21	=21	=21	=21
.	.	.	.	.	.	.	8qqd#/	.	.	.	8qqd#/	.	.	.	.
*	*	*	*	*	*	*	*	*	*	*	*2\right	*	*	*	*
8r	.	.	8r	.	4r	.	2e/	.	2.ryy	2.ryy	2e\	-pe-	2.ryy	2.ryy	2.ryy
8c#\L	.	.	8g#\L	.	.	.	.	.	.	.	.	.	.	.	.
8B\	.	.	8g#\	.	4r	.	.	.	.	.	.	.	.	.	.
8A\	.	.	8a\	.	.	.	.	.	.	.	.	.	.	.	.
8G#\	6	.	8b\	.	4gg#\	.	4bb\	.	.	.	4B/	-xit	.	.	.
8E\J	.	.	8g#\J	.	.	.	.	.	.	.	.	.	.	.	.
=22	=22	=22	=22	=22	=22	=22	=22	=22	=22	=22	=22	=22	=22	=22	=22
8BB/L	7	.	8d#\L	.	(4ff#\	.	(4aa\	.	2.ryy	2.ryy	4a\	hu-	2.ryy	2.ryy	2.ryy
8BB/	.	.	8d#\	.	.	.	.	.	.	.	.	.	.	.	.
8BB/	6 4	.	8B\	.	4ee\)	.	4gg#\)	.	.	.	4g#\	-mi-	.	.	.
8BB/	.	.	8B\	.	.	.	.	.	.	.	.	.	.	.	.
8BB/	5 3	.	8B\	.	4dd#\|	.	4ff#\|	.	.	.	4f#\	-li-	.	.	.
8BB/J	.	.	8B\J	.	.	.	.	.	.	.	.	.	.	.	.
=23	=23	=23	=23	=23	=23	=23	=23	=23	=23	=23	=23	=23	=23	=23	=23
.	.	.	.	.	8qqdd#/	.	8qqff#/	.	.	.	.	.	.	.	.
8BB/L	6 4	.	8B/L	.	4.ee\	.	4.gg#\	.	2.ryy	2.ryy	(32g#\LLL	-ta-	2.ryy	2.ryy	2.ryy
.	.	.	.	.	.	.	.	.	.	.	32f#\JJ)	.	.	.	.
.	.	.	.	.	.	.	.	.	.	.	8.e\J	.	.	.	.
8BB/	.	.	8B/	.	.	.	.	.	.	.	.	.	.	.	.
.	.	.	.	.	.	.	.	.	.	.	8qqcc#/	.	.	.	.
8BB/	.	.	8B/	.	.	.	.	.	.	.	4.b\	.	.	.	.
8BB/	.	.	8B/	.	8gg#\L	.	8bb\L	.	.	.	.	.	.	.	.
8BB/	.	.	8B/	.	8ff#\	.	8aa\	.	.	.	.	.	.	.	.
8BB/J	.	.	8B/J	.	8ee\J	.	8gg#\J	.	.	.	8e\	.	.	.	.
!	!	!	!	!	!	!	!	!	!	!	!LO:LB:g=original	!	!	!	!
=24	=24	=24	=24	=24	=24	=24	=24	=24	=24	=24	=24	=24	=24	=24	=24
.	.	.	.	.	.	.	.	.	.	.	16qqf#/LL	.	.	.	.
.	.	.	.	.	.	.	.	.	.	.	16qqg#/JJ	.	.	.	.
!	!	!	!	!	!LO:TX:a:t=P:problem=mixed beam	!	!	!	!	!	!	!	!	!	!
8BB/L	7 3	.	8d#\L	.	8ff#\L	.	8aa\L	.	2.ryy	2.ryy	(4a\	.	2.ryy	2.ryy	2.ryy
!	!	!	!	!	!	!	!LO:TX:a:t=P:problem=mixed beam	!	!	!	!	!	!	!	!
8BB/	.	.	8d#\	.	8f#/J	.	8a/	.	.	.	.	.	.	.	.
!	!	!	!	!	!LO:TX:a:t=P:problem=mixed beam	!	!	!	!	!	!	!	!	!	!
8BB/	6 4	.	8B\	.	8e/L	.	8g#/	.	.	.	4g#\)	.	.	.	.
8BB/	.	.	8B\	.	8ee\J	.	8gg#\	.	.	.	.	.	.	.	.
!	!	!	!	!	!LO:TX:a:t=P:problem=mixed beam	!	!	!	!	!	!	!	!	!	!
8BB/	5 3	.	8B\	.	8d#/L	.	8f#/	.	.	.	4f#\|	.	.	.	.
8BB/J	.	.	8B\J	.	8dd#\J	.	8ff#\J	.	.	.	.	.	.	.	.
=25	=25	=25	=25	=25	=25	=25	=25	=25	=25	=25	=25	=25	=25	=25	=25
!LO:TX:a:t=P:problem=mixed beam	!	!LO:DY:b:t=poco for.	!LO:TX:a:t=P:problem=mixed beam	!	!LO:TX:a:t=P:problem=mixed beam	!LO:DY:b:t=poco for	!LO:TX:a:t=P:problem=mixed beam	!LO:DY:b:t=for&colon; poco	!	!	!	!	!	!	!
8E\L	.	f	8B/L	.	8e/L	f	8g#/L	f	2.ryy	2.ryy	(32g#\LLL	.	2.ryy	2.ryy	2.ryy
.	.	.	.	.	.	.	.	.	.	.	32f#\JJ)	.	.	.	.
.	.	.	.	.	.	.	.	.	.	.	8.e\J	.	.	.	.
8E\	.	.	8b\	.	8ee\J	.	8gg#\J	.	.	.	.	.	.	.	.
8G#\	6	.	8b\	.	8r	.	8r	.	.	.	4e\	-tem	.	.	.
8A\	.	.	8cc#\	.	8ee\	.	8gg#\	.	.	.	.	.	.	.	.
*	*	*	*	*	*	*	*tuplet	*	*	*	*	*	*	*	*
!	!	!	!	!	!LO:TUP:a:problem=klamra łukowa	!	!LO:TUP:a:problem=klamra łukowa	!	!	!	!	!	!	!	!
8B\	.	.	8f#\	.	24dd#\LL	.	24ff#\LL	.	.	.	4r	.	.	.	.
.	.	.	.	.	24cc#\	.	24ee\	.	.	.	.	.	.	.	.
.	.	.	.	.	24b\JJ	.	24dd#\JJ	.	.	.	.	.	.	.	.
!	!	!	!	!	!LO:TUP:b:problem=klamra łukowa	!	!LO:TUP:a:problem=klamra łukowa	!	!	!	!	!	!	!	!
8BB/J	.	.	8b\J	.	24a/LL	.	24cc#\LL	.	.	.	.	.	.	.	.
.	.	.	.	.	24g#/	.	24b\	.	.	.	.	.	.	.	.
.	.	.	.	.	24f#/JJ	.	24a\JJ	.	.	.	.	.	.	.	.
!	!	!	!	!	!LO:LB:g=original	!	!LO:LB:g=original	!	!	!	!	!	!	!	!
=26	=26	=26	=26	=26	=26	=26	=26	=26	=26	=26	=26	=26	=26	=26	=26
!	!	!	!	!	!LO:TX:a:t=P:problem=mixed beam	!	!LO:TX:a:t=P:problem=mixed beam	!	!	!	!	!	!	!	!
8E\L	.	.	8b\L	.	8e/L	.	8g#/L	.	2.ryy	2.ryy	4g#\	Qui-	2.ryy	2.ryy	2.ryy
!	!	!LO:DY:b:t=pia&colon;	!	!	!	!LO:DY:b:t=pia	!	!	!	!	!	!	!	!	!
8E\	.	p	8e\	.	8ee\	p	8gg#\	.	.	.	.	.	.	.	.
!	!	!	!	!	!	!	!	!LO:DY:b:t=pia.	!	!	!	!	!	!	!
8E\	+4r 2	.	8cc#\	.	8ff#\	.	8aa#X\	p	.	.	4.a#Xt\	-a	.	.	.
8E\	.	.	8e\	.	8ff#\	.	8aa#\	.	.	.	.	.	.	.	.
8C#\	6\	.	8e\	.	8ff#\	.	8aa#\	.	.	.	.	.	.	.	.
8C#\J	.	.	8e\J	.	8ff#\J	.	8aa#\J	.	.	.	8a#\	res-	.	.	.
=27	=27	=27	=27	=27	=27	=27	=27	=27	=27	=27	=27	=27	=27	=27	=27
!	!	!	!	!	!	!	!	!	!	!	!LO:TUP:a:problem=klamra łukowa	!	!	!	!
8D#\L	6	.	8d#\L	.	8ff#\L	.	8bb\L	.	2.ryy	2.ryy	12b\L	-pe-	2.ryy	2.ryy	2.ryy
.	.	.	.	.	.	.	.	.	.	.	12a#X\	.	.	.	.
8D#\	.	.	8d#\	.	8b\	.	8ff#\	.	.	.	.	.	.	.	.
.	.	.	.	.	.	.	.	.	.	.	12g#\J	.	.	.	.
8D#\	.	.	8f#\	.	8b\	.	8ff#\	.	.	.	2f#\	-xit	.	.	.
8D#\	.	.	8f#\	.	8b\	.	8ff#\	.	.	.	.	.	.	.	.
8D#\	.	.	8f#\	.	8b\	.	8ff#\	.	.	.	.	.	.	.	.
8D#\J	.	.	8f#\J	.	8b\J	.	8ff#\J	.	.	.	.	.	.	.	.
*custos:E	*	*	*	*	*	*	*	*	*	*	*	*	*	*	*
!LO:LB:g=original	!	!	!LO:LB:g=original	!	!	!	!	!	!	!	!	!	!	!	!
=28	=28	=28	=28	=28	=28	=28	=28	=28	=28	=28	=28	=28	=28	=28	=28
!	!	!	!LO:TX:a:t=P:problem=mixed beam	!	!	!	!	!	!	!	!	!	!	!	!
8E\L	.	.	8B/L	.	8b\L	.	8gg#\L	.	2.ryy	2.ryy	4g#\	hu-	2.ryy	2.ryy	2.ryy
8E\	.	.	8e\	.	8ee\	.	8gg#\	.	.	.	.	.	.	.	.
8E\	+4r 2	.	8cc#\	.	8ff#\	.	8aa#X\	.	.	.	4.a#X\	-mi-	.	.	.
8E\	.	.	8e\	.	8ff#\	.	8aa#\	.	.	.	.	.	.	.	.
8C#\	6\	.	8e\	.	8ff#\	.	8aa#\	.	.	.	.	.	.	.	.
8C#\J	.	.	8e\J	.	8ff#\J	.	8aa#\J	.	.	.	8a#\	-li-	.	.	.
=29	=29	=29	=29	=29	=29	=29	=29	=29	=29	=29	=29	=29	=29	=29	=29
8D#\L	6	.	8d#\L	.	8ff#\L	.	8bb\L	.	2.ryy	2.ryy	4b\	-ta-	2.ryy	2.ryy	2.ryy
8D#\	.	.	8d#\	.	8ff#\	.	8bb\	.	.	.	.	.	.	.	.
8D#\	.	.	8b\	.	8ff#\	.	8bb\	.	.	.	2f#\	-tem	.	.	.
8D#\	.	.	8b\	.	8ff#\	.	8bb\	.	.	.	.	.	.	.	.
8D#\	n5	.	8b\	.	8ff#\	.	8aan\	.	.	.	.	.	.	.	.
8D#\J	.	.	8b\J	.	8ff#\J	.	8aa\J	.	.	.	.	.	.	.	.
=30	=30	=30	=30	=30	=30	=30	=30	=30	=30	=30	=30	=30	=30	=30	=30
8E\L	.	.	8b\L	.	8ee\L	.	8gg#\L	.	2.ryy	2.ryy	(32g#\LLL	an-	2.ryy	2.ryy	2.ryy
.	.	.	.	.	.	.	.	.	.	.	32f#\JJ	.	.	.	.
.	.	.	.	.	.	.	.	.	.	.	8.e\J)	.	.	.	.
8E\	.	.	8e\	.	8b\	.	8gg#\	.	.	.	.	.	.	.	.
8E\	.	.	8e\	.	8b\	.	8gg#\	.	.	.	4.bT\	.	.	.	.
8E\	.	.	8e\	.	8b\	.	8gg#\	.	.	.	.	.	.	.	.
8E\	.	.	8e\	.	8b\	.	8gg#\	.	.	.	.	.	.	.	.
8E\J	.	.	8e\J	.	8b\J	.	8gg#\J	.	.	.	8g#\	.	.	.	.
!	!	!	!	!	!	!	!	!	!	!	!LO:LB:g=original	!	!	!	!
=31	=31	=31	=31	=31	=31	=31	=31	=31	=31	=31	=31	=31	=31	=31	=31
!	!	!	!	!	!	!	!	!	!	!	!LO:TUP:a:problem=klamra łukowa	!	!	!	!
8D#\L	6	.	8f#\L	.	8b/L	.	8r	.	2.ryy	2.ryy	24f#\LL	.	2.ryy	2.ryy	2.ryy
.	.	.	.	.	.	.	.	.	.	.	24d#\	.	.	.	.
.	.	.	.	.	.	.	.	.	.	.	24e\JJ	.	.	.	.
!	!	!	!	!	!	!	!	!	!	!	!LO:TUP:a:problem=klamra łukowa	!	!	!	!
8D#\	.	.	8f#\	.	8b/	.	8ff#\L	.	.	.	24f#\LL	.	.	.	.
.	.	.	.	.	.	.	.	.	.	.	24g#\	.	.	.	.
.	.	.	.	.	.	.	.	.	.	.	24a#X\JJ	.	.	.	.
.	.	.	.	.	.	.	.	.	.	.	8qqa#/	.	.	.	.
8D#\	.	.	8f#\	.	8b/	.	8ff#\	.	.	.	4.b\	.	.	.	.
8D#\	.	.	8f#\	.	8b/	.	8ff#\	.	.	.	.	.	.	.	.
8D#\	.	.	8f#\	.	8b/	.	8ff#\	.	.	.	.	.	.	.	.
8D#\J	.	.	8f#\J	.	8b/J	.	8ff#\J	.	.	.	8f#\	.	.	.	.
=32	=32	=32	=32	=32	=32	=32	=32	=32	=32	=32	=32	=32	=32	=32	=32
!	!	!	!	!	!	!	!	!	!	!	!LO:TUP:a:problem=klamra łukowa	!	!	!	!
8C#/L	.	.	8c#/L	.	8g#/L	.	8r	.	2.ryy	2.ryy	24e\LL	.	2.ryy	2.ryy	2.ryy
.	.	.	.	.	.	.	.	.	.	.	24c#\	.	.	.	.
.	.	.	.	.	.	.	.	.	.	.	24d#\JJ	.	.	.	.
!	!	!	!	!	!	!	!LO:TX:a:t=P:problem=mixed beam	!	!	!	!LO:TUP:a:problem=klamra łukowa	!	!	!	!
8C#/	.	.	8c#/	.	8g#/	.	8ee\L	.	.	.	24e\LL	.	.	.	.
.	.	.	.	.	.	.	.	.	.	.	24f#\	.	.	.	.
.	.	.	.	.	.	.	.	.	.	.	24g#\JJ	.	.	.	.
.	.	.	.	.	.	.	.	.	.	.	8qqg#/	.	.	.	.
8AA#X/	6 5	.	8c#/	.	8f#/	.	8ee\	.	.	.	4.f#\	.	.	.	.
8AA#/	.	.	8c#/	.	8f#/	.	8ee\	.	.	.	.	.	.	.	.
8FF#/	7 #	.	8c#/	.	8a#X/	.	8ee\	.	.	.	.	.	.	.	.
8FF#/J	.	.	8c#/J	.	8a#/J	.	8e/J	.	.	.	8e\	.	.	.	.
=33	=33	=33	=33	=33	=33	=33	=33	=33	=33	=33	=33	=33	=33	=33	=33
!	!	!	!LO:TX:a:t=P:problem=mixed beam	!	!	!	!LO:TX:a:t=P:problem=mixed beam	!	!	!	!	!	!	!	!
8BB/L	.	.	8B/L	.	8B/L	.	8d#/L	.	2.ryy	2.ryy	8.d#\L	.	2.ryy	2.ryy	2.ryy
8BB/J	.	.	8f#\	.	8b/J	.	8dd#\J	.	.	.	.	.	.	.	.
.	.	.	.	.	.	.	.	.	.	.	16b\Jk	.	.	.	.
!LO:TX:a:t=P:problem=mixed beam	!	!	!	!	!	!	!	!	!	!	!	!	!	!	!
8D#\L	6	.	8f#\	.	8r	.	8r	.	.	.	(4b\	.	.	.	.
8E\	.	.	8g#\	.	8b/	.	8dd#\	.	.	.	.	.	.	.	.
!	!	!	!	!	!LO:TUP:b:problem=klamra łukowa	!	!LO:TUP:a:problem=klamra łukowa	!	!	!	!	!	!	!	!
8F#\	#	.	8c#\	.	24a#X/LL	.	24cc#\LL	.	.	.	8.a#X\L)	.	.	.	.
.	.	.	.	.	24g#/	.	24b\	.	.	.	.	.	.	.	.
.	.	.	.	.	24f#/JJ	.	24a#X\JJ	.	.	.	.	.	.	.	.
!	!	!	!	!	!LO:TUP:b:problem=klamra łukowa	!	!LO:TUP:b:problem=klamra łukowa	!	!	!	!	!	!	!	!
8FF#/J	7	.	8f#\J	.	24e/LL	.	24g#/LL	.	.	.	.	.	.	.	.
.	.	.	.	.	24d#/	.	24f#/	.	.	.	.	.	.	.	.
.	.	.	.	.	.	.	.	.	.	.	16e\Jk	.	.	.	.
.	.	.	.	.	24c#/JJ	.	24e/JJ	.	.	.	.	.	.	.	.
!	!	!	!	!	!LO:LB:g=original	!	!LO:LB:g=original	!	!	!	!	!	!	!	!
=34	=34	=34	=34	=34	=34	=34	=34	=34	=34	=34	=34	=34	=34	=34	=34
!	!	!	!	!	!	!	!LO:TX:a:t=P:problem=mixed beam	!	!	!	!	!	!	!	!
8BB/L	.	.	8f#\L	.	8B/L	.	8d#/L	.	2.ryy	2.ryy	8.d#\L	.	2.ryy	2.ryy	2.ryy
8BB/J	.	.	8f#\	.	8b/J	.	8ee\J	.	.	.	.	.	.	.	.
.	.	.	.	.	.	.	.	.	.	.	16b\Jk	.	.	.	.
!LO:TX:a:t=P:problem=mixed beam	!	!	!	!	!	!	!	!	!	!	!	!	!	!	!
8D#\L	6	.	8f#\	.	8r	.	8r	.	.	.	(4b\	.	.	.	.
8E\	.	.	8g#\	.	8b/	.	8dd#\	.	.	.	.	.	.	.	.
!	!	!	!	!	!LO:TUP:b:problem=klamra łukowa	!	!LO:TUP:a:problem=klamra łukowa	!	!	!	!	!	!	!	!
8F#\	#	.	8c#\	.	24a#X/LL	.	24cc#\LL	.	.	.	8.a#X\L)	.	.	.	.
.	.	.	.	.	24g#/	.	24b\	.	.	.	.	.	.	.	.
.	.	.	.	.	24f#/JJ	.	24a#X\JJ	.	.	.	.	.	.	.	.
!	!	!	!	!	!LO:TUP:b:problem=klamra łukowa	!	!LO:TUP:b:problem=klamra łukowa	!	!	!	!	!	!	!	!
8FF#/J	7	.	8f#\J	.	24e/LL	.	24g#/LL	.	.	.	.	.	.	.	.
.	.	.	.	.	24d#/	.	24f#/	.	.	.	.	.	.	.	.
.	.	.	.	.	.	.	.	.	.	.	16e\Jk	.	.	.	.
.	.	.	.	.	24c#/JJ	.	24e/JJ	.	.	.	.	.	.	.	.
=35	=35	=35	=35	=35	=35	=35	=35	=35	=35	=35	=35	=35	=35	=35	=35
4BB/	.	.	4F#/	.	4B/	.	4d#/	.	2.ryy	2.ryy	4d#t\	.	2.ryy	2.ryy	2.ryy
8C#\L	6\	.	4r	.	4r	.	4r	.	.	.	4e\	-cil-	.	.	.
8A#X\J	.	.	.	.	.	.	.	.	.	.	.	.	.	.	.
8D#\L	6	.	4r	.	4r	.	4r	.	.	.	4f#\	-lae	.	.	.
8B\J	.	.	.	.	.	.	.	.	.	.	.	.	.	.	.
!	!	!	!	!	!	!	!	!	!	!	!LO:LB:g=original	!	!	!	!
=36	=36	=36	=36	=36	=36	=36	=36	=36	=36	=36	=36	=36	=36	=36	=36
4E\	.	.	4E/	.	4b/	.	4gg# 4b 4d#/|>	.	2.ryy	2.ryy	4g#t\	an-	2.ryy	2.ryy	2.ryy
8F#\L	6	.	4r	.	4r	.	4r	.	.	.	4a#X\	-cil-	.	.	.
8d#\J	.	.	.	.	.	.	.	.	.	.	.	.	.	.	.
8G#\L	6	.	4r	.	4r	.	4r	.	.	.	4b\	-lae	.	.	.
8e\J	.	.	.	.	.	.	.	.	.	.	.	.	.	.	.
!LO:LB:g=original	!	!	!LO:LB:g=original	!	!	!	!	!	!	!	!	!	!	!	!
=37	=37	=37	=37	=37	=37	=37	=37	=37	=37	=37	=37	=37	=37	=37	=37
!LO:TX:a:t=P:problem=mixed beam	!	!	!	!	!	!	!	!	!	!	!	!	!	!	!
8E\L	6	.	8g#\L	.	8cc#\L	.	8.gg#t\L	.	2.ryy	2.ryy	8.g#\L	su-	2.ryy	2.ryy	2.ryy
8C#\	.	.	8g#\	.	8cc#\	.	.	.	.	.	.	.	.	.	.
.	.	.	.	.	.	.	(32ff#\LL	.	.	.	16cc#\Jk	.	.	.	.
.	.	.	.	.	.	.	32ee\JJJ)	.	.	.	.	.	.	.	.
8F#\	6 4	.	8f#\	.	8b\	.	8dd#\L	.	.	.	(4b\	.	.	.	.
8F#\	.	.	8f#\	.	8b\	.	8dd#\	.	.	.	.	.	.	.	.
8FF#/	5 #	.	8e\	.	8a#X\	.	8cc#\	.	.	.	4a#Xt\)	.	.	.	.
8FF#/J	.	.	8e\J	.	8a#\J	.	8ff#\J	.	.	.	.	.	.	.	.
=38	=38	=38	=38	=38	=38	=38	=38	=38	=38	=38	=38	=38	=38	=38	=38
!	!	!	!	!LO:DY:b:t=for	!	!LO:DY:b:t=for	!	!LO:DY:b:t=for	!	!	!	!	!	!	!
4BB/|	.	.	4d#\|	f	8.ff#T\L	f	8.ff#T\L	f	2.ryy	2.ryy	2b\	-ae	2.ryy	2.ryy	2.ryy
!	!	!LO:DY:b:t=for	!	!	!	!	!	!	!	!	!	!	!	!	!
.	.	f	.	.	32ee\LL	.	(32ee\LL	.	.	.	.	.	.	.	.
.	.	.	.	.	32ff#\JJJ	.	32ff#\JJJ)	.	.	.	.	.	.	.	.
4E\|	.	.	4B/|	.	4gg#\|	.	4gg#\|	.	.	.	.	.	.	.	.
8r	.	.	8r	.	4a#X/|>	.	4a#X/|>	.	.	.	4r	.	.	.	.
16r	.	.	16r	.	.	.	.	.	.	.	.	.	.	.	.
16E\	+4r 2	.	16f#\	.	.	.	.	.	.	.	.	.	.	.	.
=39	=39	=39	=39	=39	=39	=39	=39	=39	=39	=39	=39	=39	=39	=39	=39
.	.	.	.	.	8qqa/	.	8qqa/	.	.	.	.	.	.	.	.
8D#/L	6	.	8f#\L	.	2b/	.	2b/	.	2.ryy	2.ryy	0.r	.	2.ryy	2.ryy	2.ryy
8F#/	.	.	8d#\	.	.	.	.	.	.	.	.	.	.	.	.
8C#/	.	.	8e\	.	.	.	.	.	.	.	.	.	.	.	.
8BB/	.	.	8d#\	.	.	.	.	.	.	.	.	.	.	.	.
8AA#X/	6	.	8c#\	.	4f#/	.	4f#/	.	.	.	.	.	.	.	.
8GG#/J	.	.	8B\J	.	.	.	.	.	.	.	.	.	.	.	.
=40	=40	=40	=40	=40	=40	=40	=40	=40	=40	=40	=40	=40	=40	=40	=40
8FF#/L	7 #	.	8A#X/L	.	(4cc#\	.	(4ee\	.	2.ryy	2.ryy	.	.	2.ryy	2.ryy	2.ryy
8FF#/	.	.	8F#/	.	.	.	.	.	.	.	.	.	.	.	.
8FF#/	6 4	.	8F#/	.	4b\)	.	4dd#\)	.	.	.	.	.	.	.	.
8FF#/	.	.	8F#/	.	.	.	.	.	.	.	.	.	.	.	.
8FF#/	5 #	.	8F#/	.	4a#X\|	.	4cc#\|	.	.	.	.	.	.	.	.
8FF#/J	.	.	8F#/J	.	.	.	.	.	.	.	.	.	.	.	.
=41	=41	=41	=41	=41	=41	=41	=41	=41	=41	=41	=41	=41	=41	=41	=41
8FF#/L	6 4	.	8F#/L	.	(32b\LLL	.	(32dd#\LLL	.	2.ryy	2.ryy	.	.	2.ryy	2.ryy	2.ryy
.	.	.	.	.	32cc#\JJ	.	32cc#\JJ	.	.	.	.	.	.	.	.
.	.	.	.	.	8.dd#\J)	.	8.b\J)	.	.	.	.	.	.	.	.
8FF#/	.	.	8F#/	.	.	.	.	.	.	.	.	.	.	.	.
.	.	.	.	.	.	.	8qqgg#/	.	.	.	.	.	.	.	.
8FF#/	.	.	8F#/	.	2dd#\	.	4.ff#\	.	.	.	.	.	.	.	.
8FF#/	.	.	8F#/	.	.	.	.	.	.	.	.	.	.	.	.
8FF#/	.	.	8F#/	.	.	.	.	.	.	.	.	.	.	.	.
8FF#/J	.	.	8F#/J	.	.	.	8b\	.	.	.	.	.	.	.	.
=42	=42	=42	=42	=42	=42	=42	=42	=42	=42	=42	=42	=42	=42	=42	=42
8FF#/L	7 #	.	8F#/L	.	(8.a#X/L	.	(8.cc#T\L	.	2.ryy	2.ryy	.	.	2.ryy	2.ryy	2.ryy
8FF#/	.	.	8F#/	.	.	.	.	.	.	.	.	.	.	.	.
.	.	.	.	.	32b/LL	.	32dd#\LL	.	.	.	.	.	.	.	.
.	.	.	.	.	32cc#/JJJ)	.	32ee\JJJ)	.	.	.	.	.	.	.	.
8FF#/	6 4	.	8F#/	.	4b/	.	4dd#\	.	.	.	.	.	.	.	.
8FF#/	.	.	8F#/	.	.	.	.	.	.	.	.	.	.	.	.
8FF#/	5 #	.	8F#/	.	4a#Xt/	.	4cc#T\	.	.	.	.	.	.	.	.
8FF#/J	.	.	8F#/J	.	.	.	.	.	.	.	.	.	.	.	.
!	!	!	!	!	!	!	!LO:LB:g=original	!	!	!	!	!	!	!	!
=43	=43	=43	=43	=43	=43	=43	=43	=43	=43	=43	=43	=43	=43	=43	=43
!LO:TX:a:t=P:problem=mixed beam	!	!	!	!	!	!	!	!	!	!	!	!	!	!	!
8BB/L	.	.	2F#/	.	4b/	.	(32dd#\LLL	.	2.ryy	2.ryy	2.r	.	2.ryy	2.ryy	2.ryy
.	.	.	.	.	.	.	32cc#\JJ	.	.	.	.	.	.	.	.
.	.	.	.	.	.	.	8.b\J)	.	.	.	.	.	.	.	.
8F#\J	.	.	.	.	.	.	.	.	.	.	.	.	.	.	.
8B\L	.	.	.	.	4f#/	.	4b/	.	.	.	.	.	.	.	.
8An\	.	.	.	.	.	.	.	.	.	.	.	.	.	.	.
8G#\	-5	.	4r	.	4r	.	4r	.	.	.	.	.	.	.	.
!	!	!	!	!	!LO:TX:b:i:t=Volti Subito	!	!	!	!	!	!	!	!	!	!
8F#\J	.	.	.	.	.	.	.	.	.	.	.	.	.	.	.
!	!	!	!	!	!LO:PB:g=original	!	!	!	!	!	!	!	!	!	!
=44	=44	=44	=44	=44	=44	=44	=44	=44	=44	=44	=44	=44	=44	=44	=44
!	!	!LO:DY:b:t=piano	!	!LO:DY:b:t=pia.	!	!	!	!	!	!	!	!	!	!	!
8E#X\L	-7	p	8g#\L	p	8r	.	8r	.	2.ryy	2.ryy	8b\	Et-	2.ryy	2.ryy	2.ryy
!	!	!	!	!	!	!LO:DY:b:t=pia	!	!LO:DY:b:t=po.	!	!	!	!	!	!	!
8E#\	.	.	8g#\	.	8bb\L	p	8dddn\L	p	.	.	8b\	-ce	.	.	.
8E#\	.	.	8g#\	.	8bb\	.	8ddd\	.	.	.	4ddn\	e-	.	.	.
8E#\	.	.	8g#\	.	8bb\	.	8ddd\	.	.	.	.	.	.	.	.
8C#\	7 #	.	8e#X\	.	8aa\	.	8ccc#\	.	.	.	4e#X\	-nim	.	.	.
8C#\J	.	.	8e#\J	.	8gg#\J	.	8bb\J	.	.	.	.	.	.	.	.
!	!	!	!LO:LB:g=original	!	!	!	!	!	!	!	!	!	!	!	!
=45	=45	=45	=45	=45	=45	=45	=45	=45	=45	=45	=45	=45	=45	=45	=45
8r	.	.	4c#/	.	4ff#\	.	4aa\	.	2.ryy	2.ryy	(4.f#\	ex	2.ryy	2.ryy	2.ryy
8FF#/L	.	.	.	.	.	.	.	.	.	.	.	.	.	.	.
8AA/	.	.	4r	.	4r	.	4r	.	.	.	.	.	.	.	.
8C#/J	#	.	.	.	.	.	.	.	.	.	8e#X\)	.	.	.	.
!LO:LB:g=original	!	!	!	!	!	!	!	!	!	!	!	!	!	!	!
8F#\L	.	.	4r	.	4r	.	4r	.	.	.	(8f#\L	hoc	.	.	.
8En\J	.	.	.	.	.	.	.	.	.	.	8g#\J)	.	.	.	.
=46	=46	=46	=46	=46	=46	=46	=46	=46	=46	=46	=46	=46	=46	=46	=46
8D#/L	7	.	8f#\L	.	8r	.	8r	.	2.ryy	2.ryy	8a\	be-	2.ryy	2.ryy	2.ryy
8D#/	.	.	8f#\	.	8aa\L	.	8ccc#\L	.	.	.	8a\	-a-	.	.	.
8D#/	.	.	8f#\	.	8aa\	.	8ccc#\	.	.	.	4cc#\	-tam	.	.	.
8D#/	.	.	8f#\	.	8aa\	.	8ccc#\	.	.	.	.	.	.	.	.
8BB/	7	.	8d#\	.	8gg#\	.	8bb\	.	.	.	4d#\	me-	.	.	.
8BB/J	.	.	8d#\J	.	8ff#\J	.	8aa\J	.	.	.	.	.	.	.	.
!	!	!	!	!	!	!	!	!	!	!	!LO:LB:g=original	!	!	!	!
=47	=47	=47	=47	=47	=47	=47	=47	=47	=47	=47	=47	=47	=47	=47	=47
.	.	.	.	.	.	.	.	.	.	.	8qqd#/	.	.	.	.
8E/L	.	.	4B/	.	4ee\	.	4gg#\	.	2.ryy	2.ryy	(4.e\	-di-	2.ryy	2.ryy	2.ryy
8C#/	.	.	.	.	.	.	.	.	.	.	.	.	.	.	.
8BB/	.	.	4r	.	4r	.	4r	.	.	.	.	.	.	.	.
8AA/	.	.	.	.	.	.	.	.	.	.	8d#\)	.	.	.	.
8GG#/	6	.	4r	.	4r	.	4r	.	.	.	(8e\L	-cent	.	.	.
8FF#/J	.	.	.	.	.	.	.	.	.	.	8f#\J)	.	.	.	.
=48	=48	=48	=48	=48	=48	=48	=48	=48	=48	=48	=48	=48	=48	=48	=48
!LO:TX:a:t=P:problem=mixed beam	!	!	!	!	!	!	!	!	!	!	!LO:TUP:a:problem=klamra łukowa	!	!	!	!
8EE/L	.	.	8e\L	.	8.g#/L	.	8.b/L	.	2.ryy	2.ryy	24g#\LL	Om-	2.ryy	2.ryy	2.ryy
.	.	.	.	.	.	.	.	.	.	.	24f#\	.	.	.	.
.	.	.	.	.	.	.	.	.	.	.	24e\JJ	.	.	.	.
8E\	.	.	8e\	.	.	.	.	.	.	.	4e\	.	.	.	.
.	.	.	.	.	16g#/Jk	.	16b/Jk	.	.	.	.	.	.	.	.
8E\	.	.	8e\	.	2g#t/	.	2bT/	.	.	.	.	.	.	.	.
8E\	.	.	8e\	.	.	.	.	.	.	.	8b\L	.	.	.	.
8Dn\	4 2	.	8e\	.	.	.	.	.	.	.	8g#\	.	.	.	.
8D\J	.	.	8e\J	.	.	.	.	.	.	.	8e\J	.	.	.	.
=49	=49	=49	=49	=49	=49	=49	=49	=49	=49	=49	=49	=49	=49	=49	=49
!	!	!	!	!	!	!	!	!	!	!	!LO:TUP:a:problem=klamra łukowa	!	!	!	!
8C#/L	6	.	8e\L	.	8.a/L	.	8.cc#\L	.	2.ryy	2.ryy	24a\LL	.	2.ryy	2.ryy	2.ryy
.	.	.	.	.	.	.	.	.	.	.	24g#\	.	.	.	.
.	.	.	.	.	.	.	.	.	.	.	24f#\JJ	.	.	.	.
8C#/	.	.	8e\	.	.	.	.	.	.	.	4e\	.	.	.	.
.	.	.	.	.	16a/Jk	.	16cc#\Jk	.	.	.	.	.	.	.	.
8AA/	.	.	8e\	.	2aT/	.	2cc#T\	.	.	.	.	.	.	.	.
8AA/	.	.	8e\	.	.	.	.	.	.	.	8cc#\L	.	.	.	.
8AA/	.	.	8e\	.	.	.	.	.	.	.	8a\	.	.	.	.
8AA/J	.	.	8e\J	.	.	.	.	.	.	.	8e\J	.	.	.	.
=50	=50	=50	=50	=50	=50	=50	=50	=50	=50	=50	=50	=50	=50	=50	=50
8GG#/L	6 -5	.	8e\L	.	8.b/L	.	8.ddn\L	.	2.ryy	2.ryy	(32b\LLL	.	2.ryy	2.ryy	2.ryy
.	.	.	.	.	.	.	.	.	.	.	32a\	.	.	.	.
.	.	.	.	.	.	.	.	.	.	.	32g#\	.	.	.	.
.	.	.	.	.	.	.	.	.	.	.	32f#\JJJ)	.	.	.	.
8GG#/	.	.	8e\	.	.	.	.	.	.	.	4e\	.	.	.	.
.	.	.	.	.	16b/Jk	.	16dd\Jk	.	.	.	.	.	.	.	.
8GG#/	.	.	8e\	.	2bT/	.	2ddT\	.	.	.	.	.	.	.	.
8GG#/	.	.	8e\	.	.	.	.	.	.	.	8ddn\L	.	.	.	.
8GG#/	.	.	8e\	.	.	.	.	.	.	.	8cc#\	.	.	.	.
8GG#/J	.	.	8e\J	.	.	.	.	.	.	.	8b\J	.	.	.	.
=51	=51	=51	=51	=51	=51	=51	=51	=51	=51	=51	=51	=51	=51	=51	=51
*	*	*	*2\right	*	*	*	*	*	*	*	*	*	*	*	*
!LO:TX:a:t=P:problem=mixed beam	!	!	!	!	!	!	!	!LO:DY:b:t=for	!	!	!LO:TUP:a:problem=klamra łukowa	!	!	!	!
8AA/L	.	.	2e\	.	2a/	.	2.cc#\	f	2.ryy	2.ryy	12cc#\L	.	2.ryy	2.ryy	2.ryy
.	.	.	.	.	.	.	.	.	.	.	12b\	.	.	.	.
8E\J	.	.	.	.	.	.	.	.	.	.	.	.	.	.	.
.	.	.	.	.	.	.	.	.	.	.	12a\J	.	.	.	.
8A\L	.	.	.	.	.	.	.	.	.	.	4cc#\	.	.	.	.
8G#\	.	.	.	.	.	.	.	.	.	.	.	.	.	.	.
*	*	*	*	*	*	*	*	*	*	*	*Xtuplet	*	*	*	*
!	!	!	!	!	!	!	!	!	!	!	!LO:TUP:a:problem=klamra łukowa	!	!	!	!
8F#\	.	.	4a\	.	4r	.	.	.	.	.	12b\L	.	.	.	.
.	.	.	.	.	.	.	.	.	.	.	12a\	.	.	.	.
8E\J	.	.	.	.	.	.	.	.	.	.	.	.	.	.	.
.	.	.	.	.	.	.	.	.	.	.	12g#\J	.	.	.	.
=52	=52	=52	=52	=52	=52	=52	=52	=52	=52	=52	=52	=52	=52	=52	=52
*	*	*	*	*	*	*	*	*	*	*	*tuplet	*	*	*	*
!	!	!	!	!	!	!	!	!	!	!	!LO:TUP:a:problem=klamra łukowa	!	!	!	!
8D#X\L	7	.	2a\	.	[2.ff#\	.	2.ccc#\	.	2.ryy	2.ryy	12f#\L	.	2.ryy	2.ryy	2.ryy
.	.	.	.	.	.	.	.	.	.	.	12g#\	.	.	.	.
8D#\	.	.	.	.	.	.	.	.	.	.	.	.	.	.	.
.	.	.	.	.	.	.	.	.	.	.	12a\J	.	.	.	.
!	!	!	!	!	!	!	!	!	!	!	!LO:TUP:a:problem=klamra łukowa	!	!	!	!
8D#\	.	.	.	.	.	.	.	.	.	.	12a\L	.	.	.	.
.	.	.	.	.	.	.	.	.	.	.	12b\	.	.	.	.
8D#\	.	.	.	.	.	.	.	.	.	.	.	.	.	.	.
.	.	.	.	.	.	.	.	.	.	.	12cc#\J	.	.	.	.
!	!	!	!	!	!	!	!	!	!	!	!LO:TUP:a:problem=klamra łukowa	!	!	!	!
8D#\	.	.	4f#\	.	.	.	.	.	.	.	12cc#\L	.	.	.	.
.	.	.	.	.	.	.	.	.	.	.	12b\	.	.	.	.
8D#\J	.	.	.	.	.	.	.	.	.	.	.	.	.	.	.
.	.	.	.	.	.	.	.	.	.	.	12a\J	.	.	.	.
!	!	!	!	!	!	!	!	!	!	!	!LO:LB:g=original	!	!	!	!
=53	=53	=53	=53	=53	=53	=53	=53	=53	=53	=53	=53	=53	=53	=53	=53
!LO:TX:a:t=P:problem=mixed beam	!	!	!	!	!	!	!	!	!	!	!LO:TUP:a:problem=klamra łukowa	!	!	!	!
8G#\L	7	.	2d#\	.	2.ff#\]	.	[2.bb\	.	2.ryy	2.ryy	12b\L	.	2.ryy	2.ryy	2.ryy
.	.	.	.	.	.	.	.	.	.	.	12a\	.	.	.	.
8GG#/	.	.	.	.	.	.	.	.	.	.	.	.	.	.	.
.	.	.	.	.	.	.	.	.	.	.	12g#\J	.	.	.	.
8G#\	.	.	.	.	.	.	.	.	.	.	4b\	.	.	.	.
8F#\	.	.	.	.	.	.	.	.	.	.	.	.	.	.	.
*	*	*	*	*	*	*	*	*	*	*	*Xtuplet	*	*	*	*
!	!	!	!	!	!	!	!	!	!	!	!LO:TUP:a:problem=klamra łukowa	!	!	!	!
8E\	.	.	4g#\	.	.	.	.	.	.	.	12a\L	.	.	.	.
.	.	.	.	.	.	.	.	.	.	.	12g#\	.	.	.	.
8D#\J	.	.	.	.	.	.	.	.	.	.	.	.	.	.	.
.	.	.	.	.	.	.	.	.	.	.	12f#\J	.	.	.	.
=54	=54	=54	=54	=54	=54	=54	=54	=54	=54	=54	=54	=54	=54	=54	=54
*	*	*	*	*	*	*	*	*	*	*	*tuplet	*	*	*	*
!	!	!	!	!	!	!	!	!	!	!	!LO:TUP:a:problem=klamra łukowa	!	!	!	!
8C#/L	7	.	2g#\	.	[2.ee\	.	2.bb\]	.	2.ryy	2.ryy	12e\L	.	2.ryy	2.ryy	2.ryy
.	.	.	.	.	.	.	.	.	.	.	12f#\	.	.	.	.
8C#/	.	.	.	.	.	.	.	.	.	.	.	.	.	.	.
.	.	.	.	.	.	.	.	.	.	.	12g#\J	.	.	.	.
!	!	!	!	!	!	!	!	!	!	!	!LO:TUP:a:problem=klamra łukowa	!	!	!	!
8C#/	.	.	.	.	.	.	.	.	.	.	12g#\L	.	.	.	.
.	.	.	.	.	.	.	.	.	.	.	12a\	.	.	.	.
8C#/	.	.	.	.	.	.	.	.	.	.	.	.	.	.	.
.	.	.	.	.	.	.	.	.	.	.	12b\J	.	.	.	.
!	!	!	!	!	!	!	!	!	!	!	!LO:TUP:a:problem=klamra łukowa	!	!	!	!
8C#/	.	.	4e\	.	.	.	.	.	.	.	12b\L	.	.	.	.
.	.	.	.	.	.	.	.	.	.	.	12a\	.	.	.	.
8C#/J	.	.	.	.	.	.	.	.	.	.	.	.	.	.	.
.	.	.	.	.	.	.	.	.	.	.	12g#\J	.	.	.	.
!LO:LB:g=original	!	!	!	!	!	!	!	!	!	!	!	!	!	!	!
=55	=55	=55	=55	=55	=55	=55	=55	=55	=55	=55	=55	=55	=55	=55	=55
!LO:TX:a:t=P:problem=mixed beam	!	!	!	!	!	!	!	!	!	!	!LO:TUP:a:problem=klamra łukowa	!	!	!	!
8F#\L	7	.	2c#\	.	2.ee\]	.	[2.aa\	.	2.ryy	2.ryy	12a\L	.	2.ryy	2.ryy	2.ryy
.	.	.	.	.	.	.	.	.	.	.	12g#\	.	.	.	.
8FF#/	.	.	.	.	.	.	.	.	.	.	.	.	.	.	.
.	.	.	.	.	.	.	.	.	.	.	12f#\J	.	.	.	.
8F#\	.	.	.	.	.	.	.	.	.	.	4a\	.	.	.	.
8E\	.	.	.	.	.	.	.	.	.	.	.	.	.	.	.
*	*	*	*	*	*	*	*	*	*	*	*Xtuplet	*	*	*	*
!	!	!	!	!	!	!	!	!	!	!	!LO:TUP:a:problem=klamra łukowa	!	!	!	!
8D#\	.	.	4f#\	.	.	.	.	.	.	.	12g#\L	.	.	.	.
.	.	.	.	.	.	.	.	.	.	.	12f#\	.	.	.	.
8C#\J	.	.	.	.	.	.	.	.	.	.	.	.	.	.	.
.	.	.	.	.	.	.	.	.	.	.	12e\J	.	.	.	.
!	!	!	!LO:LB:g=original	!	!LO:LB:g=original	!	!	!	!	!	!	!	!	!	!
=56	=56	=56	=56	=56	=56	=56	=56	=56	=56	=56	=56	=56	=56	=56	=56
*	*	*	*	*	*	*	*	*	*	*	*tuplet	*	*	*	*
!	!	!	!	!	!	!	!	!	!	!	!LO:TUP:a:problem=klamra łukowa	!	!	!	!
8BB/L	7	.	2f#\	.	2.dd#\	.	2.aaT\]	.	2.ryy	2.ryy	12d#\L	.	2.ryy	2.ryy	2.ryy
.	.	.	.	.	.	.	.	.	.	.	12e\	.	.	.	.
8BB/	.	.	.	.	.	.	.	.	.	.	.	.	.	.	.
.	.	.	.	.	.	.	.	.	.	.	12f#\J	.	.	.	.
!	!	!	!	!	!	!	!	!	!	!	!LO:TUP:a:problem=klamra łukowa	!	!	!	!
8BB/	.	.	.	.	.	.	.	.	.	.	12f#\L	.	.	.	.
.	.	.	.	.	.	.	.	.	.	.	12g#\	.	.	.	.
8BB/	.	.	.	.	.	.	.	.	.	.	.	.	.	.	.
.	.	.	.	.	.	.	.	.	.	.	12a\J	.	.	.	.
!	!	!	!	!	!	!	!	!	!	!	!LO:TUP:a:problem=klamra łukowa	!	!	!	!
8BB/	.	.	4d#\	.	.	.	.	.	.	.	12a\L	.	.	.	.
.	.	.	.	.	.	.	.	.	.	.	12g#\	.	.	.	.
8BB/J	.	.	.	.	.	.	.	.	.	.	.	.	.	.	.
.	.	.	.	.	.	.	.	.	.	.	12f#\J	.	.	.	.
!	!	!	!	!	!	!	!LO:LB:g=original	!	!	!	!	!	!	!	!
=57	=57	=57	=57	=57	=57	=57	=57	=57	=57	=57	=57	=57	=57	=57	=57
!LO:TX:a:t=P:problem=mixed beam	!	!	!LO:TX:a:t=P:problem=mixed beam	!	!LO:TX:a:t=P:problem=mixed beam	!	!LO:TX:a:t=P:problem=mixed beam	!	!	!	!	!	!	!	!
8EE/L	.	.	8B/L	.	8e/L	.	8g#/L	.	2.ryy	2.ryy	8.g#\L	.	2.ryy	2.ryy	2.ryy
8E\	.	.	8b\	.	8ee\J	.	8gg#\J	.	.	.	.	.	.	.	.
.	.	.	.	.	.	.	.	.	.	.	16ee\Jk	.	.	.	.
8G#\	6	.	8b\	.	8r	.	8r	.	.	.	(4ee\	.	.	.	.
8A\	.	.	8cc#\	.	8ee\	.	8gg#\	.	.	.	.	.	.	.	.
!	!	!	!	!	!LO:TUP:a:problem=klamra łukowa	!	!LO:TUP:a:problem=klamra łukowa	!	!	!	!	!	!	!	!
8B\	.	.	8f#\	.	24dd#\LL	.	24ff#\LL	.	.	.	8.dd#\L)	.	.	.	.
.	.	.	.	.	24cc#\	.	24ee\	.	.	.	.	.	.	.	.
.	.	.	.	.	24b\JJ	.	24dd#\JJ	.	.	.	.	.	.	.	.
!	!	!	!	!	!LO:TUP:b:problem=klamra łukowa	!	!LO:TUP:a:problem=klamra łukowa	!	!	!	!	!	!	!	!
8BB/J	7	.	8b\J	.	24a/LL	.	24cc#\LL	.	.	.	.	.	.	.	.
.	.	.	.	.	24g#/	.	24b\	.	.	.	.	.	.	.	.
.	.	.	.	.	.	.	.	.	.	.	16a\Jk	.	.	.	.
.	.	.	.	.	24f#/JJ	.	24a\JJ	.	.	.	.	.	.	.	.
!	!	!	!	!	!	!	!	!	!	!	!LO:LB:g=original	!	!	!	!
=58	=58	=58	=58	=58	=58	=58	=58	=58	=58	=58	=58	=58	=58	=58	=58
!LO:TX:a:t=P:problem=mixed beam	!	!	!LO:TX:a:t=P:problem=mixed beam	!	!LO:TX:a:t=P:problem=mixed beam	!	!LO:TX:a:t=P:problem=mixed beam	!	!	!	!	!	!	!	!
8EE/L	.	.	8B/L	.	8e/L	.	8g#/L	.	2.ryy	2.ryy	8.g#\L	.	2.ryy	2.ryy	2.ryy
8E\	.	.	8b\	.	8ee\J	.	8gg#\J	.	.	.	.	.	.	.	.
.	.	.	.	.	.	.	.	.	.	.	16ee\Jk	.	.	.	.
8G#\	6	.	8b\	.	8r	.	8r	.	.	.	(4ee\	.	.	.	.
8A\	.	.	8cc#\	.	8ee\	.	8gg#\	.	.	.	.	.	.	.	.
!	!	!	!	!	!LO:TUP:a:problem=klamra łukowa	!	!LO:TUP:a:problem=klamra łukowa	!	!	!	!	!	!	!	!
8B\	.	.	8f#\	.	24dd#\LL	.	24ff#\LL	.	.	.	8.dd#\L)	.	.	.	.
.	.	.	.	.	24cc#\	.	24ee\	.	.	.	.	.	.	.	.
.	.	.	.	.	24b\JJ	.	24dd#\JJ	.	.	.	.	.	.	.	.
!	!	!	!	!	!LO:TUP:b:problem=klamra łukowa	!	!LO:TUP:a:problem=klamra łukowa	!	!	!	!	!	!	!	!
8BB/J	7	.	8b\J	.	24a/LL	.	24cc#\LL	.	.	.	.	.	.	.	.
.	.	.	.	.	24g#/	.	24b\	.	.	.	.	.	.	.	.
.	.	.	.	.	.	.	.	.	.	.	16a\Jk	.	.	.	.
.	.	.	.	.	24f#/JJ	.	24a\JJ	.	.	.	.	.	.	.	.
=59	=59	=59	=59	=59	=59	=59	=59	=59	=59	=59	=59	=59	=59	=59	=59
!	!	!	!	!	!	!	!	!	!	!	!LO:TUP:a:problem=klamra łukowa	!	!	!	!
8E\L	.	.	8B/L	.	2.eT/	.	(16g#/KL	.	2.ryy	2.ryy	24g#\LL	.	2.ryy	2.ryy	2.ryy
.	.	.	.	.	.	.	.	.	.	.	24a\	.	.	.	.
.	.	.	.	.	.	.	8.b/J)	.	.	.	.	.	.	.	.
.	.	.	.	.	.	.	.	.	.	.	24g#\JJ	.	.	.	.
8E\	.	.	8e/J	.	.	.	.	.	.	.	16f#\LL	.	.	.	.
.	.	.	.	.	.	.	.	.	.	.	16g#\JJ	.	.	.	.
!	!	!	!	!	!	!	!	!	!	!	!LO:TUP:a:problem=klamra łukowa	!	!	!	!
8F#\	7	.	8c#\L	.	.	.	(16a/KL	.	.	.	24a\LL	.	.	.	.
.	.	.	.	.	.	.	.	.	.	.	24b\	.	.	.	.
.	.	.	.	.	.	.	8.cc#/J)	.	.	.	.	.	.	.	.
.	.	.	.	.	.	.	.	.	.	.	24a\JJ	.	.	.	.
8F#\	.	.	8f#\J	.	.	.	.	.	.	.	16g#\LL	.	.	.	.
.	.	.	.	.	.	.	.	.	.	.	16a\JJ	.	.	.	.
!	!	!	!	!	!	!	!	!	!	!	!LO:TUP:a:problem=klamra łukowa	!	!	!	!
8G#\	6 -5	.	8B/L	.	.	.	(16b\KL	.	.	.	24b\LL	.	.	.	.
.	.	.	.	.	.	.	.	.	.	.	24cc#\	.	.	.	.
.	.	.	.	.	.	.	8.ddn\J)	.	.	.	.	.	.	.	.
.	.	.	.	.	.	.	.	.	.	.	24b\JJ	.	.	.	.
8G#\J	.	.	8B/J	.	.	.	.	.	.	.	16a\LL	.	.	.	.
.	.	.	.	.	.	.	.	.	.	.	16b\JJ	.	.	.	.
=60	=60	=60	=60	=60	=60	=60	=60	=60	=60	=60	=60	=60	=60	=60	=60
8AA/L|	.	.	4A/	.	4e/	.	4cc#\	.	2.ryy	2.ryy	(4cc#\	.	2.ryy	2.ryy	2.ryy
8AA/|	.	.	.	.	.	.	.	.	.	.	.	.	.	.	.
8BB/|	#	.	4r	.	4r	.	4r	.	.	.	4d#\)	.	.	.	.
8BB/|	.	.	.	.	.	.	.	.	.	.	.	.	.	.	.
8C#/|	.	.	4r	.	4r	.	4r	.	.	.	4e\	-nes	.	.	.
8C#/J|	.	.	.	.	.	.	.	.	.	.	.	.	.	.	.
=61	=61	=61	=61	=61	=61	=61	=61	=61	=61	=61	=61	=61	=61	=61	=61
4D#\	6 5	.	4B/	.	4ff#\	.	4aa\	.	2.ryy	2.ryy	4.B/	ge-	2.ryy	2.ryy	2.ryy
4r	.	.	4r	.	4r	.	4r	.	.	.	.	.	.	.	.
.	.	.	.	.	.	.	.	.	.	.	8d#\	-ne-	.	.	.
4D#\	6 5	.	4B/	.	4ff#\	.	4aa\	.	.	.	8f#\	-ra-	.	.	.
.	.	.	.	.	.	.	.	.	.	.	8a\	-ti	.	.	.
=62	=62	=62	=62	=62	=62	=62	=62	=62	=62	=62	=62	=62	=62	=62	=62
!LO:TX:a:t=P:problem=mixed beam	!	!	!	!	!	!	!	!	!	!	!	!	!	!	!
8B\L	6 4	.	8B/L	.	8ee\L	.	8gg#\L	.	2.ryy	2.ryy	(32g#\LLL	o-	2.ryy	2.ryy	2.ryy
.	.	.	.	.	.	.	.	.	.	.	32f#\JJ	.	.	.	.
.	.	.	.	.	.	.	.	.	.	.	8.e\J)	.	.	.	.
8B\	.	.	8B/	.	8ee\	.	8gg#\	.	.	.	.	.	.	.	.
.	.	.	.	.	.	.	.	.	.	.	8qqe/	.	.	.	.
8BB/	5 4	.	8B/	.	8ee\	.	8ff#\	.	.	.	2f#T\	.	.	.	.
8BB/	.	.	8B/	.	8ee\	.	8ff#\J	.	.	.	.	.	.	.	.
8BB/	3	.	8B/	.	8dd#\	.	8ff#\L	.	.	.	.	.	.	.	.
8BB/J	.	.	8B/J	.	8dd#\J	.	16gg#\L	.	.	.	.	.	.	.	.
.	.	.	.	.	.	.	16aa\JJ	.	.	.	.	.	.	.	.
!	!	!	!	!	!	!	!	!	!	!	!LO:LB:g=original	!	!	!	!
=63	=63	=63	=63	=63	=63	=63	=63	=63	=63	=63	=63	=63	=63	=63	=63
8r	.	.	4B/	.	4ee\	.	4gg#\	.	2.ryy	2.ryy	2e\	-nes	2.ryy	2.ryy	2.ryy
8E\L|	.	.	.	.	.	.	.	.	.	.	.	.	.	.	.
8G#\|	.	.	4r	.	4r	.	4r	.	.	.	.	.	.	.	.
8B\|	.	.	.	.	.	.	.	.	.	.	.	.	.	.	.
8E\|	.	.	4r	.	4r	.	4r	.	.	.	8.r	.	.	.	.
8G#\J|	.	.	.	.	.	.	.	.	.	.	.	.	.	.	.
.	.	.	.	.	.	.	.	.	.	.	16b\	be-	.	.	.
=64	=64	=64	=64	=64	=64	=64	=64	=64	=64	=64	=64	=64	=64	=64	=64
.	.	.	.	.	.	.	.	.	.	.	16qqa/LL	.	.	.	.
.	.	.	.	.	.	.	.	.	.	.	16qqb/JJ	.	.	.	.
!	!	!LO:DY:b:t=poco for	!	!	!	!LO:DY:b:t=poco for	!	!LO:DY:b:t=poco for.	!	!	!	!	!	!	!
4D#\|	.	f	4f#\|	.	4aa\|	f	4ccc#\|	f	2.ryy	2.ryy	4cc#\|	-a-	2.ryy	2.ryy	2.ryy
4E\|	.	.	4g#\|	.	4gg#\|	.	4bb\|	.	.	.	4b\|	-tam	.	.	.
4r	.	.	4r	.	4r	.	4r	.	.	.	8.r	.	.	.	.
.	.	.	.	.	.	.	.	.	.	.	16g#\	me-	.	.	.
!LO:LB:g=original	!	!	!	!	!LO:LB:g=original	!	!	!	!	!	!	!	!	!	!
=65	=65	=65	=65	=65	=65	=65	=65	=65	=65	=65	=65	=65	=65	=65	=65
.	.	.	.	.	.	.	.	.	.	.	16qqf#/LL	.	.	.	.
.	.	.	.	.	.	.	.	.	.	.	16qqg#/JJ	.	.	.	.
4BB/|	7	.	4d#\|	.	4ff#\|	.	4aa\|	.	2.ryy	2.ryy	4a\|	-di-	2.ryy	2.ryy	2.ryy
4C#/|	5	.	4e\|	.	4ee\|	.	4gg#\|	.	.	.	4g#\|	-cent	.	.	.
!	!	!	!	!	!	!	!LO:TX:b:rj:t=Volti Subito	!	!	!	!	!	!	!	!
4r	.	.	4r	.	4r	.	4r	.	.	.	4r	.	.	.	.
!	!	!	!	!	!	!	!LO:PB:g=original	!	!	!	!	!	!	!	!
=66	=66	=66	=66	=66	=66	=66	=66	=66	=66	=66	=66	=66	=66	=66	=66
!	!	!LO:DY:b:t=pia&colon;	!	!	!	!LO:DY:b:t=po.	!	!LO:DY:b:t=piano	!	!	!	!	!	!	!
8AA/L	6 5	p	(8cc#'\L	.	(8ee'\L	p	(8ff#'\L	p	2.ryy	2.ryy	(4f#\	o-	2.ryy	2.ryy	2.ryy
8AA/	.	.	8cc#'\	.	8ee'\	.	8ff#'\	.	.	.	.	.	.	.	.
8AA/	.	.	8cc#'\	.	8ee'\	.	8ff#'\	.	.	.	4c#\)	.	.	.	.
8AA/	.	.	8cc#'\	.	8ee'\	.	8ff#'\	.	.	.	.	.	.	.	.
8AA#X/	6 5	.	8cc#'\	.	8ee'\	.	8ff#'\	.	.	.	4e\	-mnes	.	.	.
8AA#/J	.	.	8cc#'\J)	.	8ee'\J)	.	8ff#'\J)	.	.	.	.	.	.	.	.
=67	=67	=67	=67	=67	=67	=67	=67	=67	=67	=67	=67	=67	=67	=67	=67
!LO:TX:b:t=Tasto solo.	!	!	!LO:TX:a:t=P:problem=mixed beam	!	!	!	!	!	!	!	!	!	!	!	!
.	.	.	.	.	.	.	.	.	.	.	8qqe/	.	.	.	.
8BB/L	.	.	8b\L	.	(16dd#\LL	.	(16ff#\LL	.	2.ryy	2.ryy	4.d#\	ge-	2.ryy	2.ryy	2.ryy
.	.	.	.	.	16ee\JJ)	.	16gg#\JJ)	.	.	.	.	.	.	.	.
8BB/	.	.	8B/	.	4ff#\	.	4aa\	.	.	.	.	.	.	.	.
8BB/	.	.	8B/	.	.	.	.	.	.	.	.	.	.	.	.
8BB/	.	.	8B/	.	8aa\L	.	8ccc#\L	.	.	.	8cc#\L	.	.	.	.
8BB/	.	.	8B/	.	8gg#\	.	8bb\	.	.	.	8b\	.	.	.	.
8BB/J	.	.	8B/J	.	8ff#\J	.	8aa\J	.	.	.	8a\J	.	.	.	.
!	!	!	!LO:LB:g=original	!	!	!	!	!	!	!	!	!	!	!	!
=68	=68	=68	=68	=68	=68	=68	=68	=68	=68	=68	=68	=68	=68	=68	=68
8BB/L	.	.	8B/L	.	(16ee\LL	.	(16gg#\LL	.	2.ryy	2.ryy	(16g#\LL	.	2.ryy	2.r	2.r
.	.	.	.	.	16ff#\JJ)	.	16aa\JJ)	.	.	.	16f#\JJ)	.	.	.	.
8BB/	.	.	8B/	.	4gg#\	.	4bb\	.	.	.	4e\	.	.	.	.
8BB/	.	.	8B/	.	.	.	.	.	.	.	.	.	.	.	.
8BB/	.	.	8B/	.	8aa\L	.	8ccc#\L	.	.	.	8cc#\L	.	.	.	.
8BB/	.	.	8B/	.	8gg#\	.	8bb\	.	.	.	8b\	.	.	.	.
8BB/J	.	.	8B/J	.	8ff#\J	.	8aaJ\	.	.	.	8a\J	.	.	.	.
=69	=69	=69	=69	=69	=69	=69	=69	=69	=69	=69	=69	=69	=69	=69	=69
!	!	!	!	!	!	!	!	!	!	!	!LO:TUP:a:problem=klamra łukowa	!	!	!	!
8BB/L	.	.	8B/L	.	(16ee\LL	.	(16gg#\LL	.	2.ryy	2.ryy	24g#\LL	.	2.ryy	2.ryy	2.ryy
.	.	.	.	.	.	.	.	.	.	.	24f#\	.	.	.	.
.	.	.	.	.	16ff#\JJ)	.	16aa\JJ)	.	.	.	.	.	.	.	.
.	.	.	.	.	.	.	.	.	.	.	24e\JJ	.	.	.	.
8BB/	.	.	8B/	.	4gg#\	.	4bb\	.	.	.	4e\	.	.	.	.
8BB/	.	.	8B/	.	.	.	.	.	.	.	.	.	.	.	.
!	!	!	!	!	!	!	!	!	!	!	!LO:LB:g=original	!	!	!	!
8BB/	.	.	8B/	.	8aa\L	.	8ccc#\L	.	.	.	(16cc#\LL	.	.	.	.
.	.	.	.	.	.	.	.	.	.	.	16a\JJ)	.	.	.	.
8BB/	.	.	8B/	.	8gg#\	.	8bb\	.	.	.	(16b\LL	.	.	.	.
.	.	.	.	.	.	.	.	.	.	.	16g#)\	.	.	.	.
8BB/J	.	.	8B/J	.	8ff#\J	.	8aa\J	.	.	.	(16a\	.	.	.	.
.	.	.	.	.	.	.	.	.	.	.	16f#\JJ)	.	.	.	.
=70	=70	=70	=70	=70	=70	=70	=70	=70	=70	=70	=70	=70	=70	=70	=70
8BB/L	.	.	8B/L	.	(16ee\LL	.	(16gg#\LL	.	2.ryy	2.ryy	4.BT/	.	2.ryy	2.ryy	2.ryy
.	.	.	.	.	16ff#\JJ)	.	16aa\JJ)	.	.	.	.	.	.	.	.
8BB/	.	.	8B/	.	4gg#\	.	4bb\	.	.	.	.	.	.	.	.
8BB/	.	.	8B/	.	.	.	.	.	.	.	.	.	.	.	.
8BB/	.	.	8B/	.	8ff#\L	.	8aa\L	.	.	.	8a\	-ne-	.	.	.
8BB/	.	.	8B/	.	8ee\	.	8gg#\	.	.	.	8g#\	-ra-	.	.	.
8BB/J	.	.	8B/J	.	8dd#\J	.	8ff#\J	.	.	.	8f#\	-ti	.	.	.
=71	=71	=71	=71	=71	=71	=71	=71	=71	=71	=71	=71	=71	=71	=71	=71
!LO:TX:a:t=P:problem=mixed beam	!	!	!LO:TX:a:t=P:problem=mixed beam	!	!	!	!	!	!	!	!	!	!	!	!
8E\L	.	.	8B/L	.	8ee\L	.	8gg#\L	.	2.ryy	2.ryy	(32a\LLL	o-	2.ryy	2.ryy	2.ryy
.	.	.	.	.	.	.	.	.	.	.	32g#\JJ)	.	.	.	.
.	.	.	.	.	.	.	.	.	.	.	8.f#\J	.	.	.	.
8G#\	.	.	8b\	.	8ee\	.	8gg#\	.	.	.	.	.	.	.	.
.\	.	.	.	.	.	.	.	.	.	.	8qqe/	.	.	.	.
8A	6 5	.	8cc#\	.	8ee\	.	8ff#\	.	.	.	2f#T\	.	.	.	.
8F#\	.	.	8a\	.	8ee\	.	8ff#\	.	.	.	.	.	.	.	.
8B\	.	.	8f#\	.	8dd#\	.	8ff#\	.	.	.	.	.	.	.	.
8BB/J	.	.	8b\J	.	8dd#\J	.	8ff#\J	.	.	.	.	.	.	.	.
!	!	!	!	!	!LO:LB:g=original	!	!	!	!	!	!	!	!	!	!
=72	=72	=72	=72	=72	=72	=72	=72	=72	=72	=72	=72	=72	=72	=72	=72
!	!	!LO:DY:b:t=for.	!	!LO:DY:b:t=for	!	!LO:DY:b:rj:t=for.	!	!LO:DY:b:t=for	!	!	!	!	!	!	!
4E\	.	f	4B/	f	(16g#/LL	f	(16g#/LL	f	2.ryy	2.ryy	2e\	-nes	2.ryy	2.ryy	2.ryy
.	.	.	.	.	16e)/	.	16e)/	.	.	.	.	.	.	.	.
.	.	.	.	.	(16b/	.	(16b/	.	.	.	.	.	.	.	.
.	.	.	.	.	16g#/JJ)	.	16g#/JJ)	.	.	.	.	.	.	.	.
8r	.	.	8r	.	2ddnT\	.	2ddnT\	.	.	.	.	.	.	.	.
8B\L	6 n	.	8g#\L	.	.	.	.	.	.	.	.	.	.	.	.
8G#\	.	.	8b\	.	.	.	.	.	.	.	4r	.	.	.	.
8E\J	.	.	8g#\J	.	.	.	.	.	.	.	.	.	.	.	.
=73	=73	=73	=73	=73	=73	=73	=73	=73	=73	=73	=73	=73	=73	=73	=73
4A\	.	.	4e\	.	(16cc#\LL	.	(16cc#LL	.	2.ryy	2.ryy	0.r	.	2.ryy	2.ryy	2.ryy
.	.	.	.	.	16a)\	.	16a)	.	.	.	.	.	.	.	.
.	.	.	.	.	(16ee\	.	(16ee	.	.	.	.	.	.	.	.
.	.	.	.	.	16cc#\JJ)	.	16cc#JJ)	.	.	.	.	.	.	.	.
8r	.	.	8r	.	2aaT\	.	2aaT	.	.	.	.	.	.	.	.
8F#\L	6\	.	8d#\L	.	.	.	.	.	.	.	.	.	.	.	.
8D#\	.	.	8f#\	.	.	.	.	.	.	.	.	.	.	.	.
!LO:TX:b:i:t=Volti presto	!	!	!	!	!	!	!	!	!	!	!	!	!	!	!
8BB\J	.	.	8d#\J	.	.	.	.	.	.	.	.	.	.	.	.
!LO:PB:g=original	!	!	!	!	!	!	!	!	!	!	!	!	!	!	!
=74	=74	=74	=74	=74	=74	=74	=74	=74	=74	=74	=74	=74	=74	=74	=74
!LO:TX:a:t=P:problem=mixed beam	!	!	!	!	!LO:TUP:a:problem=klamra łukowa	!	!LO:TUP:a:problem=klamra łukowa	!	!	!	!	!	!	!	!
8E\L	.	.	8B\L	.	24gg#\LL	.	24gg#LL	.	2.ryy	2.ryy	.	.	2.ryy	2.ryy	2.ryy
.	.	.	.	.	24aa\	.	24aa	.	.	.	.	.	.	.	.
.	.	.	.	.	24bb\JJ	.	24bbJJ	.	.	.	.	.	.	.	.
8c#\	.	.	8e\	.	16.ee\LL	.	16.eeLL	.	.	.	.	.	.	.	.
.	.	.	.	.	32aa\JJk	.	32aaJJk	.	.	.	.	.	.	.	.
.	.	.	.	.	8qqgg#/	.	8qqgg#/	.	.	.	.	.	.	.	.
8B\	.	.	8e\	.	4.ff#T\	.	4.ff#T	.	.	.	.	.	.	.	.
8B\	.	.	8e\	.	.	.	.	.	.	.	.	.	.	.	.
8BB/	.	.	8d#\	.	.	.	.	.	.	.	.	.	.	.	.
8BB/J	.	.	8d#\J	.	8ee\	.	8ee	.	.	.	.	.	.	.	.
!	!	!	!	!	!	!	!LO:LB:g=original	!	!	!	!	!	!	!	!
=75	=75	=75	=75	=75	=75	=75	=75	=75	=75	=75	=75	=75	=75	=75	=75
!LO:TX:a:t=P:problem=mixed beam	!	!	!	!	!LO:TX:a:t=P:problem=mixed beam	!	!LO:TX:a:t=P:problem=mixed beam	!	!	!	!	!	!	!	!
8E\L	.	.	8B\L	.	8e/L	.	8g#/L|	.	2.ryy	2.ryy	.	.	2.ryy	2.ryy	2.ryy
8E\	.	.	8b\	.	8ee\J	.	8gg#\J|	.	.	.	.	.	.	.	.
8G#\	.	.	8b\	.	8r\	.	8r	.	.	.	.	.	.	.	.
8A\	.	.	8cc#\	.	8ee\	.	8gg#\	.	.	.	.	.	.	.	.
!	!	!	!	!	!LO:TUP:a:problem=klamra łukowa	!	!	!	!	!	!	!	!	!	!
8B\	.	.	8f#\	.	24dd#\LL	.	24ff#\LL	.	.	.	.	.	.	.	.
.	.	.	.	.	24cc#\	.	24ee\	.	.	.	.	.	.	.	.
.	.	.	.	.	24b\JJ	.	24dd#\JJ	.	.	.	.	.	.	.	.
!	!	!	!	!	!LO:TUP:b:problem=klamra łukowa	!	!	!	!	!	!	!	!	!	!
8BBJ/	.	.	8b\J	.	24a/LL	.	24cc#\LL	.	.	.	.	.	.	.	.
.	.	.	.	.	24g#/	.	24b\	.	.	.	.	.	.	.	.
.	.	.	.	.	24f#/JJ	.	24a\JJ	.	.	.	.	.	.	.	.
=76	=76	=76	=76	=76	=76	=76	=76	=76	=76	=76	=76	=76	=76	=76	=76
!	!	!	!	!	!LO:TX:a:t=P:problem=mixed beam	!	!LO:TX:a:t=P:problem=mixed beam	!	!	!	!	!	!	!	!
8r	.	.	8r	.	8e/L	.	8g#/L|	.	2.ryy	2.ryy	.	.	2.ryy	2.ryy	2.ryy
!LO:TX:a:t=P:problem=mixed beam	!	!	!	!	!	!	!	!	!	!	!	!	!	!	!
8E\L	.	.	8b\L	.	8ee\J	.	8gg#\J|	.	.	.	.	.	.	.	.
8G#\	.	.	8b\	.	8r	.	8r	.	.	.	.	.	.	.	.
8A\	.	.	8cc#\	.	8ee\	.	8gg#\	.	.	.	.	.	.	.	.
!	!	!	!	!	!LO:TUP:a:problem=klamra łukowa	!	!LO:TUP:a:problem=klamra łukowa	!	!	!	!	!	!	!	!
8B\	.	.	8f#\	.	24dd#\LL	.	24ff#\LL	.	.	.	.	.	.	.	.
.	.	.	.	.	24cc#\	.	24ee\	.	.	.	.	.	.	.	.
.	.	.	.	.	24b\JJ	.	24dd#\JJ	.	.	.	.	.	.	.	.
!	!	!	!	!	!LO:TUP:b:problem=klamra łukowa	!	!LO:TUP:a:problem=klamra łukowa	!	!	!	!	!	!	!	!
8BB/J	.	.	8b\J	.	24a/LL	.	24cc#\LL	.	.	.	.	.	.	.	.
.	.	.	.	.	24g#/	.	24b\	.	.	.	.	.	.	.	.
.	.	.	.	.	24f#/JJ	.	24a\JJ	.	.	.	.	.	.	.	.
!	!	!	!	!	!LO:LB:g=original	!	!	!	!	!	!	!	!	!	!
=77	=77	=77	=77	=77	=77	=77	=77	=77	=77	=77	=77	=77	=77	=77	=77
!LO:TX:a:t=P:problem=mixed beam	!	!	!LO:TX:a:t=P:problem=mixed beam	!	!LO:TUP:b:problem=klamra łukowa	!	!LO:TUP:a:problem=klamra łukowa	!	!	!	!	!	!	!	!
8E\L	.	.	8b\L	.	24e/LL	.	24g#/LL	.	2.ryy	2.ryy	0.r	.	2.ryy	2.ryy	2.ryy
.	.	.	.	.	24f#/	.	24a/	.	.	.	.	.	.	.	.
.	.	.	.	.	24g#/JJ	.	24b/JJ	.	.	.	.	.	.	.	.
!	!	!	!	!	!LO:TUP:b:problem=klamra łukowa	!	!LO:TUP:a:problem=klamra łukowa	!	!	!	!	!	!	!	!
8A\	.	.	8cc#\	.	24a/LL	.	24cc#\LL	.	.	.	.	.	.	.	.
.	.	.	.	.	24g#/	.	24b\	.	.	.	.	.	.	.	.
.	.	.	.	.	24f#/JJ	.	24a\JJ	.	.	.	.	.	.	.	.
8B\	.	.	8B/	.	4e/|	.	4g#/	.	.	.	.	.	.	.	.
8BB/J	.	.	8B/	.	.	.	.	.	.	.	.	.	.	.	.
8B\L	.	.	8B/	.	4d#t/	.	4f#T/	.	.	.	.	.	.	.	.
8A\J	.	.	8B/J	.	.	.	.	.	.	.	.	.	.	.	.
=78	=78	=78	=78	=78	=78	=78	=78	=78	=78	=78	=78	=78	=78	=78	=78
!LO:TX:a:t=P:problem=mixed beam	!	!LO:DY:b:t=pia&colon;	!	!	!LO:TX:a:t=P:problem=mixed beam	!LO:DY:b:t=pia&colon;	!LO:TX:a:t=P:problem=mixed beam	!LO:DY:b:t=piano	!	!	!	!	!	!	!
8G#\L	.	p	8B\L	.	8e/L	p	8g#/L|	p	2.ryy	2.ryy	.	.	2.ryy	2.ryy	2.ryy
8E\	.	.	8b\	.	8ee\J	.	8gg#\J|	.	.	.	.	.	.	.	.
8G#\	.	.	8b\	.	8r	.	8r	.	.	.	.	.	.	.	.
8A\	.	.	8cc#\	.	8ee\	.	8gg#\	.	.	.	.	.	.	.	.
!	!	!	!	!	!LO:TUP:a:problem=klamra łukowa	!	!LO:TUP:a:problem=klamra łukowa	!	!	!	!	!	!	!	!
8B\	.	.	8f#\	.	24dd#\LL	.	24ff#\LL	.	.	.	.	.	.	.	.
.	.	.	.	.	24cc#\	.	24ee\	.	.	.	.	.	.	.	.
.	.	.	.	.	24b\JJ	.	24dd#\JJ	.	.	.	.	.	.	.	.
!	!	!	!	!	!LO:TUP:b:problem=klamra łukowa	!	!LO:TUP:a:problem=klamra łukowa	!	!	!	!	!	!	!	!
8BB/J	.	.	8b\J	.	24a/LL	.	24cc#\LL	.	.	.	.	.	.	.	.
.	.	.	.	.	24g#/	.	24b\	.	.	.	.	.	.	.	.
.	.	.	.	.	24f#/JJ	.	24a\JJ	.	.	.	.	.	.	.	.
!	!	!	!LO:LB:g=original	!	!	!	!	!	!	!	!	!	!	!	!
=79	=79	=79	=79	=79	=79	=79	=79	=79	=79	=79	=79	=79	=79	=79	=79
!	!	!	!	!	!LO:TX:a:t=P:problem=mixed beam	!	!LO:TX:a:t=P:problem=mixed beam	!	!	!	!	!	!	!	!
8r	.	.	8r	.	8e/L	.	8g#/L|	.	2.ryy	2.ryy	.	.	2.ryy	2.ryy	2.ryy
!LO:TX:a:t=P:problem=mixed beam	!	!	!	!	!	!	!	!	!	!	!	!	!	!	!
8E\L	.	.	8b\L	.	8ee\J	.	8gg#\J|	.	.	.	.	.	.	.	.
8G#\	.	.	8b\	.	8r	.	8r	.	.	.	.	.	.	.	.
8A\	.	.	8cc#\	.	8ee\	.	8gg#\	.	.	.	.	.	.	.	.
!	!	!	!	!	!LO:TUP:a:problem=klamra łukowa	!	!LO:TUP:a:problem=klamra łukowa	!	!	!	!	!	!	!	!
8B\	.	.	8f#\	.	24dd#\LL	.	24ff#\LL	.	.	.	.	.	.	.	.
.	.	.	.	.	24cc#\	.	24ee\	.	.	.	.	.	.	.	.
.	.	.	.	.	24b\JJ	.	24dd#\JJ	.	.	.	.	.	.	.	.
!	!	!	!	!	!LO:TUP:b:problem=klamra łukowa	!	!LO:TUP:a:problem=klamra łukowa	!	!	!	!	!	!	!	!
8BB/J	.	.	8b\J	.	24a/LL	.	24cc#\LL	.	.	.	.	.	.	.	.
.	.	.	.	.	24g#/	.	24b\	.	.	.	.	.	.	.	.
.	.	.	.	.	24f#/JJ	.	24a\JJ	.	.	.	.	.	.	.	.
=80	=80	=80	=80	=80	=80	=80	=80	=80	=80	=80	=80	=80	=80	=80	=80
!LO:TX:a:t=P:problem=mixed beam	!	!LO:DY:b:t=for	!	!LO:DY:b:t=for	!LO:TUP:b:problem=klamra łukowa	!	!LO:TUP:b:problem=klamra łukowa	!LO:DY:b:t=for	!	!	!	!	!	!	!
8E\L	.	f	8b\L	f	24e/LL	.	24g#/LL	f	2.ryy	2.ryy	.	.	2.ryy	2.ryy	2.ryy
.	.	.	.	.	24f#/	.	24a/	.	.	.	.	.	.	.	.
!	!	!	!	!	!	!LO:DY:b:t=for	!	!	!	!	!	!	!	!	!
.	.	.	.	.	24g#/JJ	f	24b/JJ	.	.	.	.	.	.	.	.
!	!	!	!	!	!LO:TUP:b:problem=klamra łukowa	!	!LO:TUP:a:problem=klamra łukowa	!	!	!	!	!	!	!	!
8AAJ/	.	.	8cc#\J	.	24a/LL	.	24cc#\LL	.	.	.	.	.	.	.	.
.	.	.	.	.	24g#/	.	24b\	.	.	.	.	.	.	.	.
.	.	.	.	.	24f#/JJ	.	24a\JJ	.	.	.	.	.	.	.	.
4BB/|	.	.	4B/	.	4e/|	.	4g#/	.	.	.	.	.	.	.	.
4BB/|	.	.	4B/	.	4d#t/	.	4f#T/	.	.	.	.	.	.	.	.
=81	=81	=81	=81	=81	=81	=81	=81	=81	=81	=81	=81	=81	=81	=81	=81
!	!	!	!LO:TX:b:i:t=Volti Subito	!	!	!	!	!	!	!	!	!	!	!	!
2.EE/	.	.	2.B/	.	2.e/	.	2.e/	.	2.ryy	2.ryy	2.r	.	2.ryy	2.ryy	2.ryy
==	==	==	==	==	==	==	==	==	==	==	==	==	==	==	==
*-	*-	*-	*-	*-	*-	*-	*-	*-	*-	*-	*-	*-	*-	*-	*-
!!!system-decoration: [(g1)][(g2)][(g3)]s10
!!!RDF**kern: > = above
!!!RDF**kern: | = vertical stroke
!!!ENC: Berenika Jozajtis
!!!END: 2022-04-01
!!!AIN: 1 alto 1 bass 2 cor 1 organ 1 soprn 1 tenor 1 viola 2 violn
!!!ENC: Marta Lawrence
!!!END: 2022-04-06
